libvisualresult/filter_cube/bright.CUBE
#Created by: Adobe Photoshop Export Color Lookup Plugin
TITLE "neutral-lut.png"
#LUT size
LUT_3D_SIZE 5
#data domain
#LUT data points
DOMAIN_MIN 0.000000 0.000000 0.000000
DOMAIN_MAX 0.903226 0.903226 0.903226
0.000000 0.000000 0.000000
0.296051 0.000000 0.000000
0.563904 0.000000 0.000000
0.776703 0.000000 0.000000
0.937927 0.000000 0.000000
0.000000 0.296051 0.000000
0.296051 0.296051 0.000000
0.563904 0.295990 0.000000
0.776703 0.295990 0.000000
0.937927 0.296082 0.000000
0.000000 0.563904 0.000000
0.295990 0.563904 0.000000
0.563904 0.563904 0.000000
0.776703 0.563934 0.000000
0.937927 0.563995 0.000000
0.000000 0.776703 0.000000
0.295990 0.776703 0.000000
0.563934 0.776703 0.000000
0.776703 0.776703 0.000000
0.937927 0.776733 0.000000
0.000000 0.937927 0.000000
0.296082 0.937927 0.000000
0.563995 0.937927 0.000000
0.776733 0.937927 0.000000
0.937927 0.937927 0.000000
0.000000 0.000000 0.296051
0.296051 0.000000 0.296051
0.563904 0.000000 0.295990
0.776703 0.000000 0.295990
0.937927 0.000000 0.296082
0.000000 0.296051 0.296051
0.296051 0.296051 0.296051
0.644470 0.215485 0.215485
0.921265 0.151459 0.151459
1.000000 0.233978 0.233978
0.000000 0.563904 0.295990
0.215485 0.644470 0.215485
0.644470 0.644470 0.215485
0.921265 0.580536 0.151459
1.000000 0.553589 0.233978
0.000000 0.776703 0.295990
0.151459 0.921265 0.151459
0.580536 0.921265 0.151459
0.921265 0.921265 0.151459
1.000000 0.807556 0.233978
0.000000 0.937927 0.296082
0.233978 1.000000 0.233978
0.553589 1.000000 0.233978
0.807556 1.000000 0.233978
1.000000 1.000000 0.233978
0.000000 0.000000 0.563904
0.295990 0.000000 0.563904
0.563904 0.000000 0.563904
0.776703 0.000000 0.563934
0.937927 0.000000 0.563995
0.000000 0.295990 0.563904
0.215485 0.215485 0.644470
0.644470 0.215485 0.644470
0.921265 0.151459 0.580536
1.000000 0.233978 0.553589
0.000000 0.563904 0.563904
0.215485 0.644470 0.644470
0.563904 0.563904 0.563904
0.840698 0.499878 0.499878
1.000000 0.501831 0.501831
0.000000 0.776703 0.563934
0.151459 0.921265 0.580536
0.499878 0.840698 0.499878
0.840698 0.840698 0.499878
1.000000 0.785217 0.501831
0.000000 0.937927 0.563995
0.233978 1.000000 0.553589
0.501831 1.000000 0.501831
0.785217 1.000000 0.501831
1.000000 1.000000 0.501831
0.000000 0.000000 0.776703
0.295990 0.000000 0.776703
0.563934 0.000000 0.776703
0.776703 0.000000 0.776703
0.937927 0.000000 0.776733
0.000000 0.295990 0.776703
0.151459 0.151459 0.921265
0.580536 0.151459 0.921265
0.921265 0.151459 0.921265
1.000000 0.233978 0.807556
0.000000 0.563934 0.776703
0.151459 0.580536 0.921265
0.499878 0.499878 0.840698
0.840698 0.499878 0.840698
1.000000 0.501831 0.785217
0.000000 0.776703 0.776703
0.151459 0.921265 0.921265
0.499878 0.840698 0.840698
0.776703 0.776703 0.776703
0.986420 0.728210 0.728210
0.000000 0.937927 0.776733
0.233978 1.000000 0.807556
0.501831 1.000000 0.785217
0.728210 0.986420 0.728210
0.986420 0.986420 0.728210
0.000000 0.000000 0.937927
0.296082 0.000000 0.937927
0.563995 0.000000 0.937927
0.776733 0.000000 0.937927
0.937927 0.000000 0.937927
0.000000 0.296082 0.937927
0.233978 0.233978 1.000000
0.553589 0.233978 1.000000
0.807556 0.233978 1.000000
1.000000 0.233978 1.000000
0.000000 0.563995 0.937927
0.233978 0.553589 1.000000
0.501831 0.501831 1.000000
0.785217 0.501831 1.000000
1.000000 0.501831 1.000000
0.000000 0.776733 0.937927
0.233978 0.807556 1.000000
0.501831 0.785217 1.000000
0.728210 0.728210 0.986420
0.986420 0.728210 0.986420
0.000000 0.937927 0.937927
0.233978 1.000000 1.000000
0.501831 1.000000 1.000000
0.728210 0.986420 0.986420
0.937927 0.937927 0.937927
