libvisualresult/filter_cube/bright.CUBE
#Created by: Adobe Photoshop Export Color Lookup Plugin
TITLE "neutral-lut.png"
#LUT size
LUT_3D_SIZE 8
#data domain
#LUT data points
DOMAIN_MIN 0.000000 0.000000 0.000000
DOMAIN_MAX 0.903226 0.903226 0.903226
0.000000 0.000000 0.000000
0.170990 0.000000 0.000000
0.336700 0.000000 0.000000
0.491913 0.000000 0.000000
0.631378 0.000000 0.000000
0.750183 0.000000 0.000000
0.850128 0.000000 0.000000
0.937927 0.000000 0.000000
0.000000 0.170990 0.000000
0.170990 0.170990 0.000000
0.336700 0.170990 0.000000
0.491913 0.171021 0.000000
0.631378 0.170959 0.000000
0.750183 0.171051 0.000000
0.850128 0.171021 0.000000
0.937927 0.171051 0.000000
0.000000 0.336700 0.000000
0.170990 0.336700 0.000000
0.336700 0.336700 0.000000
0.491913 0.336761 0.000000
0.631378 0.336639 0.000000
0.750183 0.336639 0.000000
0.850128 0.336639 0.000000
0.937927 0.336609 0.000000
0.000000 0.491913 0.000000
0.171021 0.491913 0.000000
0.336761 0.491913 0.000000
0.491913 0.491913 0.000000
0.631378 0.491882 0.000000
0.750183 0.491943 0.000000
0.850128 0.491882 0.000000
0.937927 0.491852 0.000000
0.000000 0.631378 0.000000
0.170959 0.631378 0.000000
0.336639 0.631378 0.000000
0.491882 0.631378 0.000000
0.631378 0.631378 0.000000
0.750183 0.631317 0.000000
0.850128 0.631378 0.000000
0.937927 0.631317 0.000000
0.000000 0.750183 0.000000
0.171051 0.750183 0.000000
0.336639 0.750183 0.000000
0.491943 0.750183 0.000000
0.631317 0.750183 0.000000
0.750183 0.750183 0.000000
0.850128 0.750092 0.000000
0.937927 0.750153 0.000000
0.000000 0.850128 0.000000
0.171021 0.850128 0.000000
0.336639 0.850128 0.000000
0.491882 0.850128 0.000000
0.631378 0.850128 0.000000
0.750092 0.850128 0.000000
0.850128 0.850128 0.000000
0.937927 0.850220 0.000000
0.000000 0.937927 0.000000
0.171051 0.937927 0.000000
0.336609 0.937927 0.000000
0.491852 0.937927 0.000000
0.631317 0.937927 0.000000
0.750153 0.937927 0.000000
0.850220 0.937927 0.000000
0.937927 0.937927 0.000000
0.000000 0.000000 0.170990
0.170990 0.000000 0.170990
0.336700 0.000000 0.170990
0.491913 0.000000 0.171021
0.631378 0.000000 0.170959
0.750183 0.000000 0.171051
0.850128 0.000000 0.171021
0.937927 0.000000 0.171051
0.000000 0.170990 0.170990
0.170990 0.170990 0.170990
0.386536 0.121155 0.121155
0.588440 0.074463 0.074463
0.769836 0.032501 0.032501
0.921173 0.000000 0.000000
1.000000 0.021118 0.021118
1.000000 0.108917 0.108917
0.000000 0.336700 0.170990
0.121155 0.386536 0.121155
0.386536 0.386536 0.121155
0.588440 0.339844 0.074463
0.769836 0.297852 0.032501
0.921173 0.263580 0.000000
1.000000 0.259857 0.021118
1.000000 0.301453 0.108917
0.000000 0.491913 0.171021
0.074463 0.588440 0.074463
0.339844 0.588440 0.074463
0.588440 0.588440 0.074463
0.769836 0.546448 0.032501
0.921173 0.510529 0.000000
1.000000 0.483795 0.021118
1.000000 0.481812 0.108917
0.000000 0.631378 0.170959
0.032501 0.769836 0.032501
0.297852 0.769836 0.032501
0.546448 0.769836 0.032501
0.769836 0.769836 0.032501
0.921173 0.732269 0.000000
1.000000 0.684784 0.021118
1.000000 0.643860 0.108917
0.000000 0.750183 0.171051
0.000000 0.921173 0.000000
0.263580 0.921173 0.000000
0.510529 0.921173 0.000000
0.732269 0.921173 0.000000
0.921173 0.921173 0.000000
1.000000 0.855896 0.021118
1.000000 0.781799 0.108917
0.000000 0.850128 0.171021
0.021118 1.000000 0.021118
0.259857 1.000000 0.021118
0.483795 1.000000 0.021118
0.684784 1.000000 0.021118
0.855896 1.000000 0.021118
1.000000 1.000000 0.021118
1.000000 0.897980 0.108917
0.000000 0.937927 0.171051
0.108917 1.000000 0.108917
0.301453 1.000000 0.108917
0.481812 1.000000 0.108917
0.643860 1.000000 0.108917
0.781799 1.000000 0.108917
0.897980 1.000000 0.108917
1.000000 1.000000 0.108917
0.000000 0.000000 0.336700
0.170990 0.000000 0.336700
0.336700 0.000000 0.336700
0.491913 0.000000 0.336761
0.631378 0.000000 0.336639
0.750183 0.000000 0.336639
0.850128 0.000000 0.336639
0.937927 0.000000 0.336609
0.000000 0.170990 0.336700
0.121155 0.121155 0.386536
0.386536 0.121155 0.386536
0.588440 0.074463 0.339844
0.769836 0.032501 0.297852
0.921173 0.000000 0.263580
1.000000 0.021118 0.259857
1.000000 0.108917 0.301453
0.000000 0.336700 0.336700
0.121155 0.386536 0.386536
0.336700 0.336700 0.336700
0.538605 0.290009 0.290009
0.720001 0.248047 0.248047
0.874542 0.212311 0.212311
1.000000 0.186829 0.186829
1.000000 0.274628 0.274628
0.000000 0.491913 0.336761
0.074463 0.588440 0.339844
0.290009 0.538605 0.290009
0.538605 0.538605 0.290009
0.720001 0.496582 0.248047
0.874542 0.460968 0.212311
1.000000 0.432617 0.186829
1.000000 0.461823 0.274628
0.000000 0.631378 0.336639
0.032501 0.769836 0.297852
0.248047 0.720001 0.248047
0.496582 0.720001 0.248047
0.720001 0.720001 0.248047
0.874542 0.684235 0.212311
1.000000 0.653564 0.186829
1.000000 0.630219 0.274628
0.000000 0.750183 0.336639
0.000000 0.921173 0.263580
0.212311 0.874542 0.212311
0.460968 0.874542 0.212311
0.684235 0.874542 0.212311
0.874542 0.874542 0.212311
1.000000 0.841766 0.186829
1.000000 0.773499 0.274628
0.000000 0.850128 0.336639
0.021118 1.000000 0.259857
0.186829 1.000000 0.186829
0.432617 1.000000 0.186829
0.653564 1.000000 0.186829
0.841766 1.000000 0.186829
1.000000 1.000000 0.186829
1.000000 0.894104 0.274628
0.000000 0.937927 0.336609
0.108917 1.000000 0.301453
0.274628 1.000000 0.274628
0.461823 1.000000 0.274628
0.630219 1.000000 0.274628
0.773499 1.000000 0.274628
0.894104 1.000000 0.274628
1.000000 1.000000 0.274628
0.000000 0.000000 0.491913
0.171021 0.000000 0.491913
0.336761 0.000000 0.491913
0.491913 0.000000 0.491913
0.631378 0.000000 0.491882
0.750183 0.000000 0.491943
0.850128 0.000000 0.491882
0.937927 0.000000 0.491852
0.000000 0.171021 0.491913
0.074463 0.074463 0.588440
0.339844 0.074463 0.588440
0.588440 0.074463 0.588440
0.769836 0.032501 0.546448
0.921173 0.000000 0.510529
1.000000 0.021118 0.483795
1.000000 0.108917 0.481812
0.000000 0.336761 0.491913
0.074463 0.339844 0.588440
0.290009 0.290009 0.538605
0.538605 0.290009 0.538605
0.720001 0.248047 0.496582
0.874542 0.212311 0.460968
1.000000 0.186829 0.432617
1.000000 0.274628 0.461823
0.000000 0.491913 0.491913
0.074463 0.588440 0.588440
0.290009 0.538605 0.538605
0.491913 0.491913 0.491913
0.673309 0.449951 0.449951
0.827850 0.414215 0.414215
0.957855 0.384155 0.384155
1.000000 0.429840 0.429840
0.000000 0.631378 0.491882
0.032501 0.769836 0.546448
0.248047 0.720001 0.496582
0.449951 0.673309 0.449951
0.673309 0.673309 0.449951
0.827850 0.637604 0.414215
0.957855 0.607544 0.384155
1.000000 0.608154 0.429840
0.000000 0.750183 0.491943
0.000000 0.921173 0.510529
0.212311 0.874542 0.460968
0.414215 0.827850 0.414215
0.637604 0.827850 0.414215
0.827850 0.827850 0.414215
0.957855 0.797760 0.384155
1.000000 0.760010 0.429840
0.000000 0.850128 0.491882
0.021118 1.000000 0.483795
0.186829 1.000000 0.432617
0.384155 0.957855 0.384155
0.607544 0.957855 0.384155
0.797760 0.957855 0.384155
0.957855 0.957855 0.384155
1.000000 0.887817 0.429840
0.000000 0.937927 0.491852
0.108917 1.000000 0.481812
0.274628 1.000000 0.461823
0.429840 1.000000 0.429840
0.608154 1.000000 0.429840
0.760010 1.000000 0.429840
0.887817 1.000000 0.429840
1.000000 1.000000 0.429840
0.000000 0.000000 0.631378
0.170959 0.000000 0.631378
0.336639 0.000000 0.631378
0.491882 0.000000 0.631378
0.631378 0.000000 0.631378
0.750183 0.000000 0.631317
0.850128 0.000000 0.631378
0.937927 0.000000 0.631317
0.000000 0.170959 0.631378
0.032501 0.032501 0.769836
0.297852 0.032501 0.769836
0.546448 0.032501 0.769836
0.769836 0.032501 0.769836
0.921173 0.000000 0.732269
1.000000 0.021118 0.684784
1.000000 0.108917 0.643860
0.000000 0.336639 0.631378
0.032501 0.297852 0.769836
0.248047 0.248047 0.720001
0.496582 0.248047 0.720001
0.720001 0.248047 0.720001
0.874542 0.212311 0.684235
1.000000 0.186829 0.653564
1.000000 0.274628 0.630219
0.000000 0.491882 0.631378
0.032501 0.546448 0.769836
0.248047 0.496582 0.720001
0.449951 0.449951 0.673309
0.673309 0.449951 0.673309
0.827850 0.414215 0.637604
0.957855 0.384155 0.607544
1.000000 0.429840 0.608154
0.000000 0.631378 0.631378
0.032501 0.769836 0.769836
0.248047 0.720001 0.720001
0.449951 0.673309 0.673309
0.631378 0.631378 0.631378
0.785919 0.595642 0.595642
0.915924 0.565582 0.565582
1.000000 0.569305 0.569305
0.000000 0.750183 0.631317
0.000000 0.921173 0.732269
0.212311 0.874542 0.684235
0.414215 0.827850 0.637604
0.595642 0.785919 0.595642
0.785919 0.785919 0.595642
0.915924 0.755890 0.565582
1.000000 0.736176 0.569305
0.000000 0.850128 0.631378
0.021118 1.000000 0.684784
0.186829 1.000000 0.653564
0.384155 0.957855 0.607544
0.565582 0.915924 0.565582
0.755890 0.915924 0.565582
0.915924 0.915924 0.565582
1.000000 0.876648 0.569305
0.000000 0.937927 0.631317
0.108917 1.000000 0.643860
0.274628 1.000000 0.630219
0.429840 1.000000 0.608154
0.569305 1.000000 0.569305
0.736176 1.000000 0.569305
0.876648 1.000000 0.569305
1.000000 1.000000 0.569305
0.000000 0.000000 0.750183
0.171051 0.000000 0.750183
0.336639 0.000000 0.750183
0.491943 0.000000 0.750183
0.631317 0.000000 0.750183
0.750183 0.000000 0.750183
0.850128 0.000000 0.750092
0.937927 0.000000 0.750153
0.000000 0.171051 0.750183
0.000000 0.000000 0.921173
0.263580 0.000000 0.921173
0.510529 0.000000 0.921173
0.732269 0.000000 0.921173
0.921173 0.000000 0.921173
1.000000 0.021118 0.855896
1.000000 0.108917 0.781799
0.000000 0.336639 0.750183
0.000000 0.263580 0.921173
0.212311 0.212311 0.874542
0.460968 0.212311 0.874542
0.684235 0.212311 0.874542
0.874542 0.212311 0.874542
1.000000 0.186829 0.841766
1.000000 0.274628 0.773499
0.000000 0.491943 0.750183
0.000000 0.510529 0.921173
0.212311 0.460968 0.874542
0.414215 0.414215 0.827850
0.637604 0.414215 0.827850
0.827850 0.414215 0.827850
0.957855 0.384155 0.797760
1.000000 0.429840 0.760010
0.000000 0.631317 0.750183
0.000000 0.732269 0.921173
0.212311 0.684235 0.874542
0.414215 0.637604 0.827850
0.595642 0.595642 0.785919
0.785919 0.595642 0.785919
0.915924 0.565582 0.755890
1.000000 0.569305 0.736176
0.000000 0.750183 0.750183
0.000000 0.921173 0.921173
0.212311 0.874542 0.874542
0.414215 0.827850 0.827850
0.595642 0.785919 0.785919
0.750183 0.750183 0.750183
0.880188 0.720123 0.720123
0.994385 0.693695 0.693695
0.000000 0.850128 0.750092
0.021118 1.000000 0.855896
0.186829 1.000000 0.841766
0.384155 0.957855 0.797760
0.565582 0.915924 0.755890
0.720123 0.880188 0.720123
0.880188 0.880188 0.720123
0.994385 0.853729 0.693695
0.000000 0.937927 0.750153
0.108917 1.000000 0.781799
0.274628 1.000000 0.773499
0.429840 1.000000 0.760010
0.569305 1.000000 0.736176
0.693695 0.994385 0.693695
0.853729 0.994385 0.693695
0.994385 0.994385 0.693695
0.000000 0.000000 0.850128
0.171021 0.000000 0.850128
0.336639 0.000000 0.850128
0.491882 0.000000 0.850128
0.631378 0.000000 0.850128
0.750092 0.000000 0.850128
0.850128 0.000000 0.850128
0.937927 0.000000 0.850220
0.000000 0.171021 0.850128
0.021118 0.021118 1.000000
0.259857 0.021118 1.000000
0.483795 0.021118 1.000000
0.684784 0.021118 1.000000
0.855896 0.021118 1.000000
1.000000 0.021118 1.000000
1.000000 0.108917 0.897980
0.000000 0.336639 0.850128
0.021118 0.259857 1.000000
0.186829 0.186829 1.000000
0.432617 0.186829 1.000000
0.653564 0.186829 1.000000
0.841766 0.186829 1.000000
1.000000 0.186829 1.000000
1.000000 0.274628 0.894104
0.000000 0.491882 0.850128
0.021118 0.483795 1.000000
0.186829 0.432617 1.000000
0.384155 0.384155 0.957855
0.607544 0.384155 0.957855
0.797760 0.384155 0.957855
0.957855 0.384155 0.957855
1.000000 0.429840 0.887817
0.000000 0.631378 0.850128
0.021118 0.684784 1.000000
0.186829 0.653564 1.000000
0.384155 0.607544 0.957855
0.565582 0.565582 0.915924
0.755890 0.565582 0.915924
0.915924 0.565582 0.915924
1.000000 0.569305 0.876648
0.000000 0.750092 0.850128
0.021118 0.855896 1.000000
0.186829 0.841766 1.000000
0.384155 0.797760 0.957855
0.565582 0.755890 0.915924
0.720123 0.720123 0.880188
0.880188 0.720123 0.880188
0.994385 0.693695 0.853729
0.000000 0.850128 0.850128
0.021118 1.000000 1.000000
0.186829 1.000000 1.000000
0.384155 0.957855 0.957855
0.565582 0.915924 0.915924
0.720123 0.880188 0.880188
0.850128 0.850128 0.850128
0.964325 0.823700 0.823700
0.000000 0.937927 0.850220
0.108917 1.000000 0.897980
0.274628 1.000000 0.894104
0.429840 1.000000 0.887817
0.569305 1.000000 0.876648
0.693695 0.994385 0.853729
0.823700 0.964325 0.823700
0.964325 0.964325 0.823700
0.000000 0.000000 0.937927
0.171051 0.000000 0.937927
0.336609 0.000000 0.937927
0.491852 0.000000 0.937927
0.631317 0.000000 0.937927
0.750153 0.000000 0.937927
0.850220 0.000000 0.937927
0.937927 0.000000 0.937927
0.000000 0.171051 0.937927
0.108917 0.108917 1.000000
0.301453 0.108917 1.000000
0.481812 0.108917 1.000000
0.643860 0.108917 1.000000
0.781799 0.108917 1.000000
0.897980 0.108917 1.000000
1.000000 0.108917 1.000000
0.000000 0.336609 0.937927
0.108917 0.301453 1.000000
0.274628 0.274628 1.000000
0.461823 0.274628 1.000000
0.630219 0.274628 1.000000
0.773499 0.274628 1.000000
0.894104 0.274628 1.000000
1.000000 0.274628 1.000000
0.000000 0.491852 0.937927
0.108917 0.481812 1.000000
0.274628 0.461823 1.000000
0.429840 0.429840 1.000000
0.608154 0.429840 1.000000
0.760010 0.429840 1.000000
0.887817 0.429840 1.000000
1.000000 0.429840 1.000000
0.000000 0.631317 0.937927
0.108917 0.643860 1.000000
0.274628 0.630219 1.000000
0.429840 0.608154 1.000000
0.569305 0.569305 1.000000
0.736176 0.569305 1.000000
0.876648 0.569305 1.000000
1.000000 0.569305 1.000000
0.000000 0.750153 0.937927
0.108917 0.781799 1.000000
0.274628 0.773499 1.000000
0.429840 0.760010 1.000000
0.569305 0.736176 1.000000
0.693695 0.693695 0.994385
0.853729 0.693695 0.994385
0.994385 0.693695 0.994385
0.000000 0.850220 0.937927
0.108917 0.897980 1.000000
0.274628 0.894104 1.000000
0.429840 0.887817 1.000000
0.569305 0.876648 1.000000
0.693695 0.853729 0.994385
0.823700 0.823700 0.964325
0.964325 0.823700 0.964325
0.000000 0.937927 0.937927
0.108917 1.000000 1.000000
0.274628 1.000000 1.000000
0.429840 1.000000 1.000000
0.569305 1.000000 1.000000
0.693695 0.994385 0.994385
0.823700 0.964325 0.964325
0.937927 0.937927 0.937927
