libvisualresult/filter_cube/classic.CUBE
#Created by: Adobe Photoshop Export Color Lookup Plugin
TITLE "相机滤镜调试.psd"
#LUT size
LUT_3D_SIZE 32
#data domain
DOMAIN_MIN 0.0 0.0 0.0
DOMAIN_MAX 1.0 1.0 1.0
#LUT data points
0.000000 0.000000 0.000000
0.045319 0.000000 0.000000
0.082794 0.000000 0.000000
0.118256 0.000000 0.000000
0.152954 0.000000 0.000000
0.187439 0.000000 0.000000
0.222046 0.000000 0.000000
0.257172 0.000000 0.000000
0.292938 0.000000 0.000000
0.329559 0.000000 0.000000
0.367096 0.000000 0.000000
0.405151 0.000000 0.000000
0.443390 0.000000 0.000000
0.481476 0.000000 0.000000
0.519135 0.000000 0.000000
0.556061 0.000000 0.000000
0.591949 0.000000 0.000000
0.626556 0.000000 0.000000
0.659668 0.000000 0.000000
0.691254 0.000000 0.000000
0.721527 0.000000 0.000000
0.750641 0.000000 0.000000
0.778625 0.000000 0.000000
0.805695 0.000000 0.000000
0.831940 0.000000 0.000000
0.857361 0.000000 0.000000
0.882202 0.000000 0.000000
0.906525 0.000000 0.000000
0.930298 0.000000 0.000000
0.953766 0.000000 0.000000
0.976990 0.000000 0.000000
1.000000 0.000000 0.000000
0.000000 0.016876 0.000000
0.045319 0.016876 0.000000
0.082794 0.016876 0.000000
0.118256 0.016876 0.000000
0.152954 0.016876 0.000000
0.187439 0.016876 0.000000
0.222046 0.016876 0.000000
0.257172 0.016876 0.000000
0.292938 0.016876 0.000000
0.329559 0.016876 0.000000
0.367096 0.016876 0.000000
0.405151 0.016876 0.000000
0.443390 0.016876 0.000000
0.481476 0.016876 0.000000
0.519135 0.016876 0.000000
0.556061 0.016876 0.000000
0.591949 0.016876 0.000000
0.626556 0.016876 0.000000
0.659668 0.016876 0.000000
0.691254 0.016876 0.000000
0.721527 0.016876 0.000000
0.750641 0.016876 0.000000
0.778625 0.016876 0.000000
0.805695 0.016876 0.000000
0.831940 0.016876 0.000000
0.857361 0.016876 0.000000
0.882202 0.016876 0.000000
0.906525 0.016876 0.000000
0.930298 0.016876 0.000000
0.953766 0.016876 0.000000
0.976990 0.016876 0.000000
1.000000 0.016876 0.000000
0.000000 0.037476 0.000000
0.045319 0.037476 0.000000
0.082794 0.037476 0.000000
0.118256 0.037476 0.000000
0.152954 0.037476 0.000000
0.187439 0.037476 0.000000
0.222046 0.037476 0.000000
0.257172 0.037476 0.000000
0.292938 0.037476 0.000000
0.329559 0.037476 0.000000
0.367096 0.037476 0.000000
0.405151 0.037476 0.000000
0.443390 0.037476 0.000000
0.481476 0.037476 0.000000
0.519135 0.037476 0.000000
0.556061 0.037476 0.000000
0.591949 0.037476 0.000000
0.626556 0.037476 0.000000
0.659668 0.037476 0.000000
0.691254 0.037476 0.000000
0.721527 0.037476 0.000000
0.750641 0.037476 0.000000
0.778625 0.037476 0.000000
0.805695 0.037476 0.000000
0.831940 0.037476 0.000000
0.857361 0.037476 0.000000
0.882202 0.037476 0.000000
0.906525 0.037476 0.000000
0.930298 0.037476 0.000000
0.953766 0.037476 0.000000
0.976990 0.037476 0.000000
1.000000 0.037476 0.000000
0.000000 0.059814 0.000000
0.045319 0.059814 0.000000
0.082794 0.059814 0.000000
0.118256 0.059814 0.000000
0.152954 0.059814 0.000000
0.187439 0.059814 0.000000
0.222046 0.059814 0.000000
0.257172 0.059814 0.000000
0.292938 0.059814 0.000000
0.329559 0.059814 0.000000
0.367096 0.059814 0.000000
0.405151 0.059814 0.000000
0.443390 0.059814 0.000000
0.481476 0.059814 0.000000
0.519135 0.059814 0.000000
0.556061 0.059814 0.000000
0.591949 0.059814 0.000000
0.626556 0.059814 0.000000
0.659668 0.059814 0.000000
0.691254 0.059814 0.000000
0.721527 0.059814 0.000000
0.750641 0.059814 0.000000
0.778625 0.059814 0.000000
0.805695 0.059814 0.000000
0.831940 0.059814 0.000000
0.857361 0.059814 0.000000
0.882202 0.059814 0.000000
0.906525 0.059814 0.000000
0.930298 0.059814 0.000000
0.953766 0.059814 0.000000
0.976990 0.059814 0.000000
1.000000 0.059814 0.000000
0.000000 0.083557 0.000000
0.045319 0.083557 0.000000
0.082794 0.083557 0.000000
0.118256 0.083557 0.000000
0.152954 0.083557 0.000000
0.187439 0.083557 0.000000
0.222046 0.083557 0.000000
0.257172 0.083557 0.000000
0.292938 0.083557 0.000000
0.329559 0.083557 0.000000
0.367096 0.083557 0.000000
0.405151 0.083557 0.000000
0.443390 0.083557 0.000000
0.481476 0.083557 0.000000
0.519135 0.083557 0.000000
0.556061 0.083557 0.000000
0.591949 0.083557 0.000000
0.626556 0.083557 0.000000
0.659668 0.083557 0.000000
0.691254 0.083557 0.000000
0.721527 0.083557 0.000000
0.750641 0.083557 0.000000
0.778625 0.083557 0.000000
0.805695 0.083557 0.000000
0.831940 0.083557 0.000000
0.857361 0.083557 0.000000
0.882202 0.083557 0.000000
0.906525 0.083557 0.000000
0.930298 0.083557 0.000000
0.953766 0.083557 0.000000
0.976990 0.083557 0.000000
1.000000 0.083557 0.000000
0.000000 0.108490 0.000000
0.045319 0.108490 0.000000
0.082794 0.108490 0.000000
0.118256 0.108490 0.000000
0.152954 0.108490 0.000000
0.187439 0.108490 0.000000
0.222046 0.108490 0.000000
0.257172 0.108490 0.000000
0.292938 0.108490 0.000000
0.329559 0.108490 0.000000
0.367096 0.108490 0.000000
0.405151 0.108490 0.000000
0.443390 0.108490 0.000000
0.481476 0.108490 0.000000
0.519135 0.108490 0.000000
0.556061 0.108490 0.000000
0.591949 0.108490 0.000000
0.626556 0.108490 0.000000
0.659668 0.108490 0.000000
0.691254 0.108490 0.000000
0.721527 0.108490 0.000000
0.750641 0.108490 0.000000
0.778625 0.108490 0.000000
0.805695 0.108490 0.000000
0.831940 0.108490 0.000000
0.857361 0.108490 0.000000
0.882202 0.108490 0.000000
0.906525 0.108490 0.000000
0.930298 0.108490 0.000000
0.953766 0.108490 0.000000
0.976990 0.108490 0.000000
1.000000 0.108490 0.000000
0.000000 0.134644 0.000000
0.045319 0.134644 0.000000
0.082794 0.134644 0.000000
0.118256 0.134644 0.000000
0.152954 0.134644 0.000000
0.187439 0.134644 0.000000
0.222046 0.134644 0.000000
0.257172 0.134644 0.000000
0.292938 0.134644 0.000000
0.329559 0.134644 0.000000
0.367096 0.134644 0.000000
0.405151 0.134644 0.000000
0.443390 0.134644 0.000000
0.481476 0.134644 0.000000
0.519135 0.134644 0.000000
0.556061 0.134644 0.000000
0.591949 0.134644 0.000000
0.626556 0.134644 0.000000
0.659668 0.134644 0.000000
0.691254 0.134644 0.000000
0.721527 0.134644 0.000000
0.750641 0.134644 0.000000
0.778625 0.134644 0.000000
0.805695 0.134644 0.000000
0.831940 0.134644 0.000000
0.857361 0.134644 0.000000
0.882202 0.134644 0.000000
0.906525 0.134644 0.000000
0.930298 0.134644 0.000000
0.953766 0.134644 0.000000
0.976990 0.134644 0.000000
1.000000 0.134644 0.000000
0.000000 0.162018 0.000000
0.045319 0.162018 0.000000
0.082794 0.162018 0.000000
0.118256 0.162018 0.000000
0.152954 0.162018 0.000000
0.187439 0.162018 0.000000
0.222046 0.162018 0.000000
0.257172 0.162018 0.000000
0.292938 0.162018 0.000000
0.329559 0.162018 0.000000
0.367096 0.162018 0.000000
0.405151 0.162018 0.000000
0.443390 0.162018 0.000000
0.481476 0.162018 0.000000
0.519135 0.162018 0.000000
0.556061 0.162018 0.000000
0.591949 0.162018 0.000000
0.626556 0.162018 0.000000
0.659668 0.162018 0.000000
0.691254 0.162018 0.000000
0.721527 0.162018 0.000000
0.750641 0.162018 0.000000
0.778625 0.162018 0.000000
0.805695 0.162018 0.000000
0.831940 0.162018 0.000000
0.857361 0.162018 0.000000
0.882202 0.162018 0.000000
0.906525 0.162018 0.000000
0.930298 0.162018 0.000000
0.953766 0.162018 0.000000
0.976990 0.162018 0.000000
1.000000 0.162018 0.000000
0.000000 0.190643 0.000000
0.045319 0.190643 0.000000
0.082794 0.190643 0.000000
0.118256 0.190643 0.000000
0.152954 0.190643 0.000000
0.187439 0.190643 0.000000
0.222046 0.190643 0.000000
0.257172 0.190643 0.000000
0.292938 0.190643 0.000000
0.329559 0.190643 0.000000
0.367096 0.190643 0.000000
0.405151 0.190643 0.000000
0.443390 0.190643 0.000000
0.481476 0.190643 0.000000
0.519135 0.190643 0.000000
0.556061 0.190643 0.000000
0.591949 0.190643 0.000000
0.626556 0.190643 0.000000
0.659668 0.190643 0.000000
0.691254 0.190643 0.000000
0.721527 0.190643 0.000000
0.750641 0.190643 0.000000
0.778625 0.190643 0.000000
0.805695 0.190643 0.000000
0.831940 0.190643 0.000000
0.857361 0.190643 0.000000
0.882202 0.190643 0.000000
0.906525 0.190643 0.000000
0.930298 0.190643 0.000000
0.953766 0.190643 0.000000
0.976990 0.190643 0.000000
1.000000 0.190643 0.000000
0.000000 0.220642 0.000000
0.045319 0.220642 0.000000
0.082794 0.220642 0.000000
0.118256 0.220642 0.000000
0.152954 0.220642 0.000000
0.187439 0.220642 0.000000
0.222046 0.220642 0.000000
0.257172 0.220642 0.000000
0.292938 0.220642 0.000000
0.329559 0.220642 0.000000
0.367096 0.220642 0.000000
0.405151 0.220642 0.000000
0.443390 0.220642 0.000000
0.481476 0.220642 0.000000
0.519135 0.220642 0.000000
0.556061 0.220642 0.000000
0.591949 0.220642 0.000000
0.626556 0.220642 0.000000
0.659668 0.220642 0.000000
0.691254 0.220642 0.000000
0.721527 0.220642 0.000000
0.750641 0.220642 0.000000
0.778625 0.220642 0.000000
0.805695 0.220642 0.000000
0.831940 0.220642 0.000000
0.857361 0.220642 0.000000
0.882202 0.220642 0.000000
0.906525 0.220642 0.000000
0.930298 0.220642 0.000000
0.953766 0.220642 0.000000
0.976990 0.220642 0.000000
1.000000 0.220642 0.000000
0.000000 0.252167 0.000000
0.045319 0.252167 0.000000
0.082794 0.252167 0.000000
0.118256 0.252167 0.000000
0.152954 0.252167 0.000000
0.187439 0.252167 0.000000
0.222046 0.252167 0.000000
0.257172 0.252167 0.000000
0.292938 0.252167 0.000000
0.329559 0.252167 0.000000
0.367096 0.252167 0.000000
0.405151 0.252167 0.000000
0.443390 0.252167 0.000000
0.481476 0.252167 0.000000
0.519135 0.252167 0.000000
0.556061 0.252167 0.000000
0.591949 0.252167 0.000000
0.626556 0.252167 0.000000
0.659668 0.252167 0.000000
0.691254 0.252167 0.000000
0.721527 0.252167 0.000000
0.750641 0.252167 0.000000
0.778625 0.252167 0.000000
0.805695 0.252167 0.000000
0.831940 0.252167 0.000000
0.857361 0.252167 0.000000
0.882202 0.252167 0.000000
0.906525 0.252167 0.000000
0.930298 0.252167 0.000000
0.953766 0.252167 0.000000
0.976990 0.252167 0.000000
1.000000 0.252167 0.000000
0.000000 0.285248 0.000000
0.045319 0.285248 0.000000
0.082794 0.285248 0.000000
0.118256 0.285248 0.000000
0.152954 0.285248 0.000000
0.187439 0.285248 0.000000
0.222046 0.285248 0.000000
0.257172 0.285248 0.000000
0.292938 0.285248 0.000000
0.329559 0.285248 0.000000
0.367096 0.285248 0.000000
0.405151 0.285248 0.000000
0.443390 0.285248 0.000000
0.481476 0.285248 0.000000
0.519135 0.285248 0.000000
0.556061 0.285248 0.000000
0.591949 0.285248 0.000000
0.626556 0.285248 0.000000
0.659668 0.285248 0.000000
0.691254 0.285248 0.000000
0.721527 0.285248 0.000000
0.750641 0.285248 0.000000
0.778625 0.285248 0.000000
0.805695 0.285248 0.000000
0.831940 0.285248 0.000000
0.857361 0.285248 0.000000
0.882202 0.285248 0.000000
0.906525 0.285248 0.000000
0.930298 0.285248 0.000000
0.953766 0.285248 0.000000
0.976990 0.285248 0.000000
1.000000 0.285248 0.000000
0.000000 0.320160 0.000000
0.045319 0.320160 0.000000
0.082794 0.320160 0.000000
0.118256 0.320160 0.000000
0.152954 0.320160 0.000000
0.187439 0.320160 0.000000
0.222046 0.320160 0.000000
0.257172 0.320160 0.000000
0.292938 0.320160 0.000000
0.329559 0.320160 0.000000
0.367096 0.320160 0.000000
0.405151 0.320160 0.000000
0.443390 0.320160 0.000000
0.481476 0.320160 0.000000
0.519135 0.320160 0.000000
0.556061 0.320160 0.000000
0.591949 0.320160 0.000000
0.626556 0.320160 0.000000
0.659668 0.320160 0.000000
0.691254 0.320160 0.000000
0.721527 0.320160 0.000000
0.750641 0.320160 0.000000
0.778625 0.320160 0.000000
0.805695 0.320160 0.000000
0.831940 0.320160 0.000000
0.857361 0.320160 0.000000
0.882202 0.320160 0.000000
0.906525 0.320160 0.000000
0.930298 0.320160 0.000000
0.953766 0.320160 0.000000
0.976990 0.320160 0.000000
1.000000 0.320160 0.000000
0.000000 0.356934 0.000000
0.045319 0.356934 0.000000
0.082794 0.356934 0.000000
0.118256 0.356934 0.000000
0.152954 0.356934 0.000000
0.187439 0.356934 0.000000
0.222046 0.356934 0.000000
0.257172 0.356934 0.000000
0.292938 0.356934 0.000000
0.329559 0.356934 0.000000
0.367096 0.356934 0.000000
0.405151 0.356934 0.000000
0.443390 0.356934 0.000000
0.481476 0.356934 0.000000
0.519135 0.356934 0.000000
0.556061 0.356934 0.000000
0.591949 0.356934 0.000000
0.626556 0.356934 0.000000
0.659668 0.356934 0.000000
0.691254 0.356934 0.000000
0.721527 0.356934 0.000000
0.750641 0.356934 0.000000
0.778625 0.356934 0.000000
0.805695 0.356934 0.000000
0.831940 0.356934 0.000000
0.857361 0.356934 0.000000
0.882202 0.356934 0.000000
0.906525 0.356934 0.000000
0.930298 0.356934 0.000000
0.953766 0.356934 0.000000
0.976990 0.356934 0.000000
1.000000 0.356934 0.000000
0.000000 0.395264 0.000000
0.045319 0.395264 0.000000
0.082794 0.395264 0.000000
0.118256 0.395264 0.000000
0.152954 0.395264 0.000000
0.187439 0.395264 0.000000
0.222046 0.395264 0.000000
0.257172 0.395264 0.000000
0.292938 0.395264 0.000000
0.329559 0.395264 0.000000
0.367096 0.395264 0.000000
0.405151 0.395264 0.000000
0.443390 0.395264 0.000000
0.481476 0.395264 0.000000
0.519135 0.395264 0.000000
0.556061 0.395264 0.000000
0.591949 0.395264 0.000000
0.626556 0.395264 0.000000
0.659668 0.395264 0.000000
0.691254 0.395264 0.000000
0.721527 0.395264 0.000000
0.750641 0.395264 0.000000
0.778625 0.395264 0.000000
0.805695 0.395264 0.000000
0.831940 0.395264 0.000000
0.857361 0.395264 0.000000
0.882202 0.395264 0.000000
0.906525 0.395264 0.000000
0.930298 0.395264 0.000000
0.953766 0.395264 0.000000
0.976990 0.395264 0.000000
1.000000 0.395264 0.000000
0.000000 0.434814 0.000000
0.045319 0.434814 0.000000
0.082794 0.434814 0.000000
0.118256 0.434814 0.000000
0.152954 0.434814 0.000000
0.187439 0.434814 0.000000
0.222046 0.434814 0.000000
0.257172 0.434814 0.000000
0.292938 0.434814 0.000000
0.329559 0.434814 0.000000
0.367096 0.434814 0.000000
0.405151 0.434814 0.000000
0.443390 0.434814 0.000000
0.481476 0.434814 0.000000
0.519135 0.434814 0.000000
0.556061 0.434814 0.000000
0.591949 0.434814 0.000000
0.626556 0.434814 0.000000
0.659668 0.434814 0.000000
0.691254 0.434814 0.000000
0.721527 0.434814 0.000000
0.750641 0.434814 0.000000
0.778625 0.434814 0.000000
0.805695 0.434814 0.000000
0.831940 0.434814 0.000000
0.857361 0.434814 0.000000
0.882202 0.434814 0.000000
0.906525 0.434814 0.000000
0.930298 0.434814 0.000000
0.953766 0.434814 0.000000
0.976990 0.434814 0.000000
1.000000 0.434814 0.000000
0.000000 0.475189 0.000000
0.045319 0.475189 0.000000
0.082794 0.475189 0.000000
0.118256 0.475189 0.000000
0.152954 0.475189 0.000000
0.187439 0.475189 0.000000
0.222046 0.475189 0.000000
0.257172 0.475189 0.000000
0.292938 0.475189 0.000000
0.329559 0.475189 0.000000
0.367096 0.475189 0.000000
0.405151 0.475189 0.000000
0.443390 0.475189 0.000000
0.481476 0.475189 0.000000
0.519135 0.475189 0.000000
0.556061 0.475189 0.000000
0.591949 0.475189 0.000000
0.626556 0.475189 0.000000
0.659668 0.475189 0.000000
0.691254 0.475189 0.000000
0.721527 0.475189 0.000000
0.750641 0.475189 0.000000
0.778625 0.475189 0.000000
0.805695 0.475189 0.000000
0.831940 0.475189 0.000000
0.857361 0.475189 0.000000
0.882202 0.475189 0.000000
0.906525 0.475189 0.000000
0.930298 0.475189 0.000000
0.953766 0.475189 0.000000
0.976990 0.475189 0.000000
1.000000 0.475189 0.000000
0.000000 0.515991 0.000000
0.045319 0.515991 0.000000
0.082794 0.515991 0.000000
0.118256 0.515991 0.000000
0.152954 0.515991 0.000000
0.187439 0.515991 0.000000
0.222046 0.515991 0.000000
0.257172 0.515991 0.000000
0.292938 0.515991 0.000000
0.329559 0.515991 0.000000
0.367096 0.515991 0.000000
0.405151 0.515991 0.000000
0.443390 0.515991 0.000000
0.481476 0.515991 0.000000
0.519135 0.515991 0.000000
0.556061 0.515991 0.000000
0.591949 0.515991 0.000000
0.626556 0.515991 0.000000
0.659668 0.515991 0.000000
0.691254 0.515991 0.000000
0.721527 0.515991 0.000000
0.750641 0.515991 0.000000
0.778625 0.515991 0.000000
0.805695 0.515991 0.000000
0.831940 0.515991 0.000000
0.857361 0.515991 0.000000
0.882202 0.515991 0.000000
0.906525 0.515991 0.000000
0.930298 0.515991 0.000000
0.953766 0.515991 0.000000
0.976990 0.515991 0.000000
1.000000 0.515991 0.000000
0.000000 0.556671 0.000000
0.045319 0.556671 0.000000
0.082794 0.556671 0.000000
0.118256 0.556671 0.000000
0.152954 0.556671 0.000000
0.187439 0.556671 0.000000
0.222046 0.556671 0.000000
0.257172 0.556671 0.000000
0.292938 0.556671 0.000000
0.329559 0.556671 0.000000
0.367096 0.556671 0.000000
0.405151 0.556671 0.000000
0.443390 0.556671 0.000000
0.481476 0.556671 0.000000
0.519135 0.556671 0.000000
0.556061 0.556671 0.000000
0.591949 0.556671 0.000000
0.626556 0.556671 0.000000
0.659668 0.556671 0.000000
0.691254 0.556671 0.000000
0.721527 0.556671 0.000000
0.750641 0.556671 0.000000
0.778625 0.556671 0.000000
0.805695 0.556671 0.000000
0.831940 0.556671 0.000000
0.857361 0.556671 0.000000
0.882202 0.556671 0.000000
0.906525 0.556671 0.000000
0.930298 0.556671 0.000000
0.953766 0.556671 0.000000
0.976990 0.556671 0.000000
1.000000 0.556671 0.000000
0.000000 0.596893 0.000000
0.045319 0.596893 0.000000
0.082794 0.596893 0.000000
0.118256 0.596893 0.000000
0.152954 0.596893 0.000000
0.187439 0.596893 0.000000
0.222046 0.596893 0.000000
0.257172 0.596893 0.000000
0.292938 0.596893 0.000000
0.329559 0.596893 0.000000
0.367096 0.596893 0.000000
0.405151 0.596893 0.000000
0.443390 0.596893 0.000000
0.481476 0.596893 0.000000
0.519135 0.596893 0.000000
0.556061 0.596893 0.000000
0.591949 0.596893 0.000000
0.626556 0.596893 0.000000
0.659668 0.596893 0.000000
0.691254 0.596893 0.000000
0.721527 0.596893 0.000000
0.750641 0.596893 0.000000
0.778625 0.596893 0.000000
0.805695 0.596893 0.000000
0.831940 0.596893 0.000000
0.857361 0.596893 0.000000
0.882202 0.596893 0.000000
0.906525 0.596893 0.000000
0.930298 0.596893 0.000000
0.953766 0.596893 0.000000
0.976990 0.596893 0.000000
1.000000 0.596893 0.000000
0.000000 0.636017 0.000000
0.045319 0.636017 0.000000
0.082794 0.636017 0.000000
0.118256 0.636017 0.000000
0.152954 0.636017 0.000000
0.187439 0.636017 0.000000
0.222046 0.636017 0.000000
0.257172 0.636017 0.000000
0.292938 0.636017 0.000000
0.329559 0.636017 0.000000
0.367096 0.636017 0.000000
0.405151 0.636017 0.000000
0.443390 0.636017 0.000000
0.481476 0.636017 0.000000
0.519135 0.636017 0.000000
0.556061 0.636017 0.000000
0.591949 0.636017 0.000000
0.626556 0.636017 0.000000
0.659668 0.636017 0.000000
0.691254 0.636017 0.000000
0.721527 0.636017 0.000000
0.750641 0.636017 0.000000
0.778625 0.636017 0.000000
0.805695 0.636017 0.000000
0.831940 0.636017 0.000000
0.857361 0.636017 0.000000
0.882202 0.636017 0.000000
0.906525 0.636017 0.000000
0.930298 0.636017 0.000000
0.953766 0.636017 0.000000
0.976990 0.636017 0.000000
1.000000 0.636017 0.000000
0.000000 0.673828 0.000000
0.045319 0.673828 0.000000
0.082794 0.673828 0.000000
0.118256 0.673828 0.000000
0.152954 0.673828 0.000000
0.187439 0.673828 0.000000
0.222046 0.673828 0.000000
0.257172 0.673828 0.000000
0.292938 0.673828 0.000000
0.329559 0.673828 0.000000
0.367096 0.673828 0.000000
0.405151 0.673828 0.000000
0.443390 0.673828 0.000000
0.481476 0.673828 0.000000
0.519135 0.673828 0.000000
0.556061 0.673828 0.000000
0.591949 0.673828 0.000000
0.626556 0.673828 0.000000
0.659668 0.673828 0.000000
0.691254 0.673828 0.000000
0.721527 0.673828 0.000000
0.750641 0.673828 0.000000
0.778625 0.673828 0.000000
0.805695 0.673828 0.000000
0.831940 0.673828 0.000000
0.857361 0.673828 0.000000
0.882202 0.673828 0.000000
0.906525 0.673828 0.000000
0.930298 0.673828 0.000000
0.953766 0.673828 0.000000
0.976990 0.673828 0.000000
1.000000 0.673828 0.000000
0.000000 0.710266 0.000000
0.045319 0.710266 0.000000
0.082794 0.710266 0.000000
0.118256 0.710266 0.000000
0.152954 0.710266 0.000000
0.187439 0.710266 0.000000
0.222046 0.710266 0.000000
0.257172 0.710266 0.000000
0.292938 0.710266 0.000000
0.329559 0.710266 0.000000
0.367096 0.710266 0.000000
0.405151 0.710266 0.000000
0.443390 0.710266 0.000000
0.481476 0.710266 0.000000
0.519135 0.710266 0.000000
0.556061 0.710266 0.000000
0.591949 0.710266 0.000000
0.626556 0.710266 0.000000
0.659668 0.710266 0.000000
0.691254 0.710266 0.000000
0.721527 0.710266 0.000000
0.750641 0.710266 0.000000
0.778625 0.710266 0.000000
0.805695 0.710266 0.000000
0.831940 0.710266 0.000000
0.857361 0.710266 0.000000
0.882202 0.710266 0.000000
0.906525 0.710266 0.000000
0.930298 0.710266 0.000000
0.953766 0.710266 0.000000
0.976990 0.710266 0.000000
1.000000 0.710266 0.000000
0.000000 0.745514 0.000000
0.045319 0.745514 0.000000
0.082794 0.745514 0.000000
0.118256 0.745514 0.000000
0.152954 0.745514 0.000000
0.187439 0.745514 0.000000
0.222046 0.745514 0.000000
0.257172 0.745514 0.000000
0.292938 0.745514 0.000000
0.329559 0.745514 0.000000
0.367096 0.745514 0.000000
0.405151 0.745514 0.000000
0.443390 0.745514 0.000000
0.481476 0.745514 0.000000
0.519135 0.745514 0.000000
0.556061 0.745514 0.000000
0.591949 0.745514 0.000000
0.626556 0.745514 0.000000
0.659668 0.745514 0.000000
0.691254 0.745514 0.000000
0.721527 0.745514 0.000000
0.750641 0.745514 0.000000
0.778625 0.745514 0.000000
0.805695 0.745514 0.000000
0.831940 0.745514 0.000000
0.857361 0.745514 0.000000
0.882202 0.745514 0.000000
0.906525 0.745514 0.000000
0.930298 0.745514 0.000000
0.953766 0.745514 0.000000
0.976990 0.745514 0.000000
1.000000 0.745514 0.000000
0.000000 0.779663 0.000000
0.045319 0.779663 0.000000
0.082794 0.779663 0.000000
0.118256 0.779663 0.000000
0.152954 0.779663 0.000000
0.187439 0.779663 0.000000
0.222046 0.779663 0.000000
0.257172 0.779663 0.000000
0.292938 0.779663 0.000000
0.329559 0.779663 0.000000
0.367096 0.779663 0.000000
0.405151 0.779663 0.000000
0.443390 0.779663 0.000000
0.481476 0.779663 0.000000
0.519135 0.779663 0.000000
0.556061 0.779663 0.000000
0.591949 0.779663 0.000000
0.626556 0.779663 0.000000
0.659668 0.779663 0.000000
0.691254 0.779663 0.000000
0.721527 0.779663 0.000000
0.750641 0.779663 0.000000
0.778625 0.779663 0.000000
0.805695 0.779663 0.000000
0.831940 0.779663 0.000000
0.857361 0.779663 0.000000
0.882202 0.779663 0.000000
0.906525 0.779663 0.000000
0.930298 0.779663 0.000000
0.953766 0.779663 0.000000
0.976990 0.779663 0.000000
1.000000 0.779663 0.000000
0.000000 0.812866 0.000000
0.045319 0.812866 0.000000
0.082794 0.812866 0.000000
0.118256 0.812866 0.000000
0.152954 0.812866 0.000000
0.187439 0.812866 0.000000
0.222046 0.812866 0.000000
0.257172 0.812866 0.000000
0.292938 0.812866 0.000000
0.329559 0.812866 0.000000
0.367096 0.812866 0.000000
0.405151 0.812866 0.000000
0.443390 0.812866 0.000000
0.481476 0.812866 0.000000
0.519135 0.812866 0.000000
0.556061 0.812866 0.000000
0.591949 0.812866 0.000000
0.626556 0.812866 0.000000
0.659668 0.812866 0.000000
0.691254 0.812866 0.000000
0.721527 0.812866 0.000000
0.750641 0.812866 0.000000
0.778625 0.812866 0.000000
0.805695 0.812866 0.000000
0.831940 0.812866 0.000000
0.857361 0.812866 0.000000
0.882202 0.812866 0.000000
0.906525 0.812866 0.000000
0.930298 0.812866 0.000000
0.953766 0.812866 0.000000
0.976990 0.812866 0.000000
1.000000 0.812866 0.000000
0.000000 0.845215 0.000000
0.045319 0.845215 0.000000
0.082794 0.845215 0.000000
0.118256 0.845215 0.000000
0.152954 0.845215 0.000000
0.187439 0.845215 0.000000
0.222046 0.845215 0.000000
0.257172 0.845215 0.000000
0.292938 0.845215 0.000000
0.329559 0.845215 0.000000
0.367096 0.845215 0.000000
0.405151 0.845215 0.000000
0.443390 0.845215 0.000000
0.481476 0.845215 0.000000
0.519135 0.845215 0.000000
0.556061 0.845215 0.000000
0.591949 0.845215 0.000000
0.626556 0.845215 0.000000
0.659668 0.845215 0.000000
0.691254 0.845215 0.000000
0.721527 0.845215 0.000000
0.750641 0.845215 0.000000
0.778625 0.845215 0.000000
0.805695 0.845215 0.000000
0.831940 0.845215 0.000000
0.857361 0.845215 0.000000
0.882202 0.845215 0.000000
0.906525 0.845215 0.000000
0.930298 0.845215 0.000000
0.953766 0.845215 0.000000
0.976990 0.845215 0.000000
1.000000 0.845215 0.000000
0.000000 0.876892 0.000000
0.045319 0.876892 0.000000
0.082794 0.876892 0.000000
0.118256 0.876892 0.000000
0.152954 0.876892 0.000000
0.187439 0.876892 0.000000
0.222046 0.876892 0.000000
0.257172 0.876892 0.000000
0.292938 0.876892 0.000000
0.329559 0.876892 0.000000
0.367096 0.876892 0.000000
0.405151 0.876892 0.000000
0.443390 0.876892 0.000000
0.481476 0.876892 0.000000
0.519135 0.876892 0.000000
0.556061 0.876892 0.000000
0.591949 0.876892 0.000000
0.626556 0.876892 0.000000
