libvisualresult/filter_cube/classic.CUBE
#Created by: Adobe Photoshop Export Color Lookup Plugin
TITLE "相机滤镜调试.psd"
#LUT size
LUT_3D_SIZE 5
#data domain
#LUT data points
DOMAIN_MIN 0.000000 0.000000 0.000000
DOMAIN_MAX 0.903226 0.903226 0.903226
0.000000 0.000000 0.000000
0.257172 0.000000 0.000000
0.519135 0.000000 0.000000
0.750641 0.000000 0.000000
0.930298 0.000000 0.000000
0.000000 0.162018 0.000000
0.257172 0.162018 0.000000
0.519135 0.162018 0.000000
0.750641 0.162018 0.000000
0.930298 0.162018 0.000000
0.000000 0.395264 0.000000
0.257172 0.395264 0.000000
0.519135 0.395264 0.000000
0.750641 0.395264 0.000000
0.930298 0.395264 0.000000
0.000000 0.673828 0.000000
0.257172 0.673828 0.000000
0.519135 0.673828 0.000000
0.750641 0.673828 0.000000
0.930298 0.673828 0.000000
0.000000 0.908081 0.000000
0.257172 0.908081 0.000000
0.519135 0.908081 0.000000
0.750641 0.908081 0.000000
0.930298 0.908081 0.000000
0.000000 0.000000 0.211853
0.257172 0.000000 0.211853
0.519135 0.000000 0.211853
0.750641 0.000000 0.211853
0.930298 0.000000 0.211853
0.000000 0.162018 0.211853
0.257172 0.162018 0.211853
0.519135 0.162018 0.211853
0.750641 0.162018 0.211853
0.930298 0.162018 0.211853
0.000000 0.395264 0.211853
0.257172 0.395264 0.211853
0.519135 0.395264 0.211853
0.750641 0.395264 0.211853
0.930298 0.395264 0.211853
0.000000 0.673828 0.211853
0.257172 0.673828 0.211853
0.519135 0.673828 0.211853
0.750641 0.673828 0.211853
0.930298 0.673828 0.211853
0.000000 0.908081 0.211853
0.257172 0.908081 0.211853
0.519135 0.908081 0.211853
0.750641 0.908081 0.211853
0.930298 0.908081 0.211853
0.000000 0.000000 0.464478
0.257172 0.000000 0.464478
0.519135 0.000000 0.464478
0.750641 0.000000 0.464478
0.930298 0.000000 0.464478
0.000000 0.162018 0.464478
0.257172 0.162018 0.464478
0.519135 0.162018 0.464478
0.750641 0.162018 0.464478
0.930298 0.162018 0.464478
0.000000 0.395264 0.464478
0.257172 0.395264 0.464478
0.519135 0.395264 0.464478
0.750641 0.395264 0.464478
0.930298 0.395264 0.464478
0.000000 0.673828 0.464478
0.257172 0.673828 0.464478
0.519135 0.673828 0.464478
0.750641 0.673828 0.464478
0.930298 0.673828 0.464478
0.000000 0.908081 0.464478
0.257172 0.908081 0.464478
0.519135 0.908081 0.464478
0.750641 0.908081 0.464478
0.930298 0.908081 0.464478
0.000000 0.000000 0.718781
0.257172 0.000000 0.718781
0.519135 0.000000 0.718781
0.750641 0.000000 0.718781
0.930298 0.000000 0.718781
0.000000 0.162018 0.718781
0.257172 0.162018 0.718781
0.519135 0.162018 0.718781
0.750641 0.162018 0.718781
0.930298 0.162018 0.718781
0.000000 0.395264 0.718781
0.257172 0.395264 0.718781
0.519135 0.395264 0.718781
0.750641 0.395264 0.718781
0.930298 0.395264 0.718781
0.000000 0.673828 0.718781
0.257172 0.673828 0.718781
0.519135 0.673828 0.718781
0.750641 0.673828 0.718781
0.930298 0.673828 0.718781
0.000000 0.908081 0.718781
0.257172 0.908081 0.718781
0.519135 0.908081 0.718781
0.750641 0.908081 0.718781
0.930298 0.908081 0.718781
0.000000 0.000000 0.921112
0.257172 0.000000 0.921112
0.519135 0.000000 0.921112
0.750641 0.000000 0.921112
0.930298 0.000000 0.921112
0.000000 0.162018 0.921112
0.257172 0.162018 0.921112
0.519135 0.162018 0.921112
0.750641 0.162018 0.921112
0.930298 0.162018 0.921112
0.000000 0.395264 0.921112
0.257172 0.395264 0.921112
0.519135 0.395264 0.921112
0.750641 0.395264 0.921112
0.930298 0.395264 0.921112
0.000000 0.673828 0.921112
0.257172 0.673828 0.921112
0.519135 0.673828 0.921112
0.750641 0.673828 0.921112
0.930298 0.673828 0.921112
0.000000 0.908081 0.921112
0.257172 0.908081 0.921112
0.519135 0.908081 0.921112
0.750641 0.908081 0.921112
0.930298 0.908081 0.921112
