libvisualresult/filter_cube/classic.CUBE
#Created by: Adobe Photoshop Export Color Lookup Plugin
TITLE "相机滤镜调试.psd"
#LUT size
LUT_3D_SIZE 8
#data domain
#LUT data points
DOMAIN_MIN 0.000000 0.000000 0.000000
DOMAIN_MAX 0.903226 0.903226 0.903226
0.000000 0.000000 0.000000
0.152954 0.000000 0.000000
0.292938 0.000000 0.000000
0.443390 0.000000 0.000000
0.591949 0.000000 0.000000
0.721527 0.000000 0.000000
0.831940 0.000000 0.000000
0.930298 0.000000 0.000000
0.000000 0.083557 0.000000
0.152954 0.083557 0.000000
0.292938 0.083557 0.000000
0.443390 0.083557 0.000000
0.591949 0.083557 0.000000
0.721527 0.083557 0.000000
0.831940 0.083557 0.000000
0.930298 0.083557 0.000000
0.000000 0.190643 0.000000
0.152954 0.190643 0.000000
0.292938 0.190643 0.000000
0.443390 0.190643 0.000000
0.591949 0.190643 0.000000
0.721527 0.190643 0.000000
0.831940 0.190643 0.000000
0.930298 0.190643 0.000000
0.000000 0.320160 0.000000
0.152954 0.320160 0.000000
0.292938 0.320160 0.000000
0.443390 0.320160 0.000000
0.591949 0.320160 0.000000
0.721527 0.320160 0.000000
0.831940 0.320160 0.000000
0.930298 0.320160 0.000000
0.000000 0.475189 0.000000
0.152954 0.475189 0.000000
0.292938 0.475189 0.000000
0.443390 0.475189 0.000000
0.591949 0.475189 0.000000
0.721527 0.475189 0.000000
0.831940 0.475189 0.000000
0.930298 0.475189 0.000000
0.000000 0.636017 0.000000
0.152954 0.636017 0.000000
0.292938 0.636017 0.000000
0.443390 0.636017 0.000000
0.591949 0.636017 0.000000
0.721527 0.636017 0.000000
0.831940 0.636017 0.000000
0.930298 0.636017 0.000000
0.000000 0.779663 0.000000
0.152954 0.779663 0.000000
0.292938 0.779663 0.000000
0.443390 0.779663 0.000000
0.591949 0.779663 0.000000
0.721527 0.779663 0.000000
0.831940 0.779663 0.000000
0.930298 0.779663 0.000000
0.000000 0.908081 0.000000
0.152954 0.908081 0.000000
0.292938 0.908081 0.000000
0.443390 0.908081 0.000000
0.591949 0.908081 0.000000
0.721527 0.908081 0.000000
0.831940 0.908081 0.000000
0.930298 0.908081 0.000000
0.000000 0.000000 0.118958
0.152954 0.000000 0.118958
0.292938 0.000000 0.118958
0.443390 0.000000 0.118958
0.591949 0.000000 0.118958
0.721527 0.000000 0.118958
0.831940 0.000000 0.118958
0.930298 0.000000 0.118958
0.000000 0.083557 0.118958
0.152954 0.083557 0.118958
0.292938 0.083557 0.118958
0.443390 0.083557 0.118958
0.591949 0.083557 0.118958
0.721527 0.083557 0.118958
0.831940 0.083557 0.118958
0.930298 0.083557 0.118958
0.000000 0.190643 0.118958
0.152954 0.190643 0.118958
0.292938 0.190643 0.118958
0.443390 0.190643 0.118958
0.591949 0.190643 0.118958
0.721527 0.190643 0.118958
0.831940 0.190643 0.118958
0.930298 0.190643 0.118958
0.000000 0.320160 0.118958
0.152954 0.320160 0.118958
0.292938 0.320160 0.118958
0.443390 0.320160 0.118958
0.591949 0.320160 0.118958
0.721527 0.320160 0.118958
0.831940 0.320160 0.118958
0.930298 0.320160 0.118958
0.000000 0.475189 0.118958
0.152954 0.475189 0.118958
0.292938 0.475189 0.118958
0.443390 0.475189 0.118958
0.591949 0.475189 0.118958
0.721527 0.475189 0.118958
0.831940 0.475189 0.118958
0.930298 0.475189 0.118958
0.000000 0.636017 0.118958
0.152954 0.636017 0.118958
0.292938 0.636017 0.118958
0.443390 0.636017 0.118958
0.591949 0.636017 0.118958
0.721527 0.636017 0.118958
0.831940 0.636017 0.118958
0.930298 0.636017 0.118958
0.000000 0.779663 0.118958
0.152954 0.779663 0.118958
0.292938 0.779663 0.118958
0.443390 0.779663 0.118958
0.591949 0.779663 0.118958
0.721527 0.779663 0.118958
0.831940 0.779663 0.118958
0.930298 0.779663 0.118958
0.000000 0.908081 0.118958
0.152954 0.908081 0.118958
0.292938 0.908081 0.118958
0.443390 0.908081 0.118958
0.591949 0.908081 0.118958
0.721527 0.908081 0.118958
0.831940 0.908081 0.118958
0.930298 0.908081 0.118958
0.000000 0.000000 0.244568
0.152954 0.000000 0.244568
0.292938 0.000000 0.244568
0.443390 0.000000 0.244568
0.591949 0.000000 0.244568
0.721527 0.000000 0.244568
0.831940 0.000000 0.244568
0.930298 0.000000 0.244568
0.000000 0.083557 0.244568
0.152954 0.083557 0.244568
0.292938 0.083557 0.244568
0.443390 0.083557 0.244568
0.591949 0.083557 0.244568
0.721527 0.083557 0.244568
0.831940 0.083557 0.244568
0.930298 0.083557 0.244568
0.000000 0.190643 0.244568
0.152954 0.190643 0.244568
0.292938 0.190643 0.244568
0.443390 0.190643 0.244568
0.591949 0.190643 0.244568
0.721527 0.190643 0.244568
0.831940 0.190643 0.244568
0.930298 0.190643 0.244568
0.000000 0.320160 0.244568
0.152954 0.320160 0.244568
0.292938 0.320160 0.244568
0.443390 0.320160 0.244568
0.591949 0.320160 0.244568
0.721527 0.320160 0.244568
0.831940 0.320160 0.244568
0.930298 0.320160 0.244568
0.000000 0.475189 0.244568
0.152954 0.475189 0.244568
0.292938 0.475189 0.244568
0.443390 0.475189 0.244568
0.591949 0.475189 0.244568
0.721527 0.475189 0.244568
0.831940 0.475189 0.244568
0.930298 0.475189 0.244568
0.000000 0.636017 0.244568
0.152954 0.636017 0.244568
0.292938 0.636017 0.244568
0.443390 0.636017 0.244568
0.591949 0.636017 0.244568
0.721527 0.636017 0.244568
0.831940 0.636017 0.244568
0.930298 0.636017 0.244568
0.000000 0.779663 0.244568
0.152954 0.779663 0.244568
0.292938 0.779663 0.244568
0.443390 0.779663 0.244568
0.591949 0.779663 0.244568
0.721527 0.779663 0.244568
0.831940 0.779663 0.244568
0.930298 0.779663 0.244568
0.000000 0.908081 0.244568
0.152954 0.908081 0.244568
0.292938 0.908081 0.244568
0.443390 0.908081 0.244568
0.591949 0.908081 0.244568
0.721527 0.908081 0.244568
0.831940 0.908081 0.244568
0.930298 0.908081 0.244568
0.000000 0.000000 0.387360
0.152954 0.000000 0.387360
0.292938 0.000000 0.387360
0.443390 0.000000 0.387360
0.591949 0.000000 0.387360
0.721527 0.000000 0.387360
0.831940 0.000000 0.387360
0.930298 0.000000 0.387360
0.000000 0.083557 0.387360
0.152954 0.083557 0.387360
0.292938 0.083557 0.387360
0.443390 0.083557 0.387360
0.591949 0.083557 0.387360
0.721527 0.083557 0.387360
0.831940 0.083557 0.387360
0.930298 0.083557 0.387360
0.000000 0.190643 0.387360
0.152954 0.190643 0.387360
0.292938 0.190643 0.387360
0.443390 0.190643 0.387360
0.591949 0.190643 0.387360
0.721527 0.190643 0.387360
0.831940 0.190643 0.387360
0.930298 0.190643 0.387360
0.000000 0.320160 0.387360
0.152954 0.320160 0.387360
0.292938 0.320160 0.387360
0.443390 0.320160 0.387360
0.591949 0.320160 0.387360
0.721527 0.320160 0.387360
0.831940 0.320160 0.387360
0.930298 0.320160 0.387360
0.000000 0.475189 0.387360
0.152954 0.475189 0.387360
0.292938 0.475189 0.387360
0.443390 0.475189 0.387360
0.591949 0.475189 0.387360
0.721527 0.475189 0.387360
0.831940 0.475189 0.387360
0.930298 0.475189 0.387360
0.000000 0.636017 0.387360
0.152954 0.636017 0.387360
0.292938 0.636017 0.387360
0.443390 0.636017 0.387360
0.591949 0.636017 0.387360
0.721527 0.636017 0.387360
0.831940 0.636017 0.387360
0.930298 0.636017 0.387360
0.000000 0.779663 0.387360
0.152954 0.779663 0.387360
0.292938 0.779663 0.387360
0.443390 0.779663 0.387360
0.591949 0.779663 0.387360
0.721527 0.779663 0.387360
0.831940 0.779663 0.387360
0.930298 0.779663 0.387360
0.000000 0.908081 0.387360
0.152954 0.908081 0.387360
0.292938 0.908081 0.387360
0.443390 0.908081 0.387360
0.591949 0.908081 0.387360
0.721527 0.908081 0.387360
0.831940 0.908081 0.387360
0.930298 0.908081 0.387360
0.000000 0.000000 0.541870
0.152954 0.000000 0.541870
0.292938 0.000000 0.541870
0.443390 0.000000 0.541870
0.591949 0.000000 0.541870
0.721527 0.000000 0.541870
0.831940 0.000000 0.541870
0.930298 0.000000 0.541870
0.000000 0.083557 0.541870
0.152954 0.083557 0.541870
0.292938 0.083557 0.541870
0.443390 0.083557 0.541870
0.591949 0.083557 0.541870
0.721527 0.083557 0.541870
0.831940 0.083557 0.541870
0.930298 0.083557 0.541870
0.000000 0.190643 0.541870
0.152954 0.190643 0.541870
0.292938 0.190643 0.541870
0.443390 0.190643 0.541870
0.591949 0.190643 0.541870
0.721527 0.190643 0.541870
0.831940 0.190643 0.541870
0.930298 0.190643 0.541870
0.000000 0.320160 0.541870
0.152954 0.320160 0.541870
0.292938 0.320160 0.541870
0.443390 0.320160 0.541870
0.591949 0.320160 0.541870
0.721527 0.320160 0.541870
0.831940 0.320160 0.541870
0.930298 0.320160 0.541870
0.000000 0.475189 0.541870
0.152954 0.475189 0.541870
0.292938 0.475189 0.541870
0.443390 0.475189 0.541870
0.591949 0.475189 0.541870
0.721527 0.475189 0.541870
0.831940 0.475189 0.541870
0.930298 0.475189 0.541870
0.000000 0.636017 0.541870
0.152954 0.636017 0.541870
0.292938 0.636017 0.541870
0.443390 0.636017 0.541870
0.591949 0.636017 0.541870
0.721527 0.636017 0.541870
0.831940 0.636017 0.541870
0.930298 0.636017 0.541870
0.000000 0.779663 0.541870
0.152954 0.779663 0.541870
0.292938 0.779663 0.541870
0.443390 0.779663 0.541870
0.591949 0.779663 0.541870
0.721527 0.779663 0.541870
0.831940 0.779663 0.541870
0.930298 0.779663 0.541870
0.000000 0.908081 0.541870
0.152954 0.908081 0.541870
0.292938 0.908081 0.541870
0.443390 0.908081 0.541870
0.591949 0.908081 0.541870
0.721527 0.908081 0.541870
0.831940 0.908081 0.541870
0.930298 0.908081 0.541870
0.000000 0.000000 0.686035
0.152954 0.000000 0.686035
0.292938 0.000000 0.686035
0.443390 0.000000 0.686035
0.591949 0.000000 0.686035
0.721527 0.000000 0.686035
0.831940 0.000000 0.686035
0.930298 0.000000 0.686035
0.000000 0.083557 0.686035
0.152954 0.083557 0.686035
0.292938 0.083557 0.686035
0.443390 0.083557 0.686035
0.591949 0.083557 0.686035
0.721527 0.083557 0.686035
0.831940 0.083557 0.686035
0.930298 0.083557 0.686035
0.000000 0.190643 0.686035
0.152954 0.190643 0.686035
0.292938 0.190643 0.686035
0.443390 0.190643 0.686035
0.591949 0.190643 0.686035
0.721527 0.190643 0.686035
0.831940 0.190643 0.686035
0.930298 0.190643 0.686035
0.000000 0.320160 0.686035
0.152954 0.320160 0.686035
0.292938 0.320160 0.686035
0.443390 0.320160 0.686035
0.591949 0.320160 0.686035
0.721527 0.320160 0.686035
0.831940 0.320160 0.686035
0.930298 0.320160 0.686035
0.000000 0.475189 0.686035
0.152954 0.475189 0.686035
0.292938 0.475189 0.686035
0.443390 0.475189 0.686035
0.591949 0.475189 0.686035
0.721527 0.475189 0.686035
0.831940 0.475189 0.686035
0.930298 0.475189 0.686035
0.000000 0.636017 0.686035
0.152954 0.636017 0.686035
0.292938 0.636017 0.686035
0.443390 0.636017 0.686035
0.591949 0.636017 0.686035
0.721527 0.636017 0.686035
0.831940 0.636017 0.686035
0.930298 0.636017 0.686035
0.000000 0.779663 0.686035
0.152954 0.779663 0.686035
0.292938 0.779663 0.686035
0.443390 0.779663 0.686035
0.591949 0.779663 0.686035
0.721527 0.779663 0.686035
0.831940 0.779663 0.686035
0.930298 0.779663 0.686035
0.000000 0.908081 0.686035
0.152954 0.908081 0.686035
0.292938 0.908081 0.686035
0.443390 0.908081 0.686035
0.591949 0.908081 0.686035
0.721527 0.908081 0.686035
0.831940 0.908081 0.686035
0.930298 0.908081 0.686035
0.000000 0.000000 0.810272
0.152954 0.000000 0.810272
0.292938 0.000000 0.810272
0.443390 0.000000 0.810272
0.591949 0.000000 0.810272
0.721527 0.000000 0.810272
0.831940 0.000000 0.810272
0.930298 0.000000 0.810272
0.000000 0.083557 0.810272
0.152954 0.083557 0.810272
0.292938 0.083557 0.810272
0.443390 0.083557 0.810272
0.591949 0.083557 0.810272
0.721527 0.083557 0.810272
0.831940 0.083557 0.810272
0.930298 0.083557 0.810272
0.000000 0.190643 0.810272
0.152954 0.190643 0.810272
0.292938 0.190643 0.810272
0.443390 0.190643 0.810272
0.591949 0.190643 0.810272
0.721527 0.190643 0.810272
0.831940 0.190643 0.810272
0.930298 0.190643 0.810272
0.000000 0.320160 0.810272
0.152954 0.320160 0.810272
0.292938 0.320160 0.810272
0.443390 0.320160 0.810272
0.591949 0.320160 0.810272
0.721527 0.320160 0.810272
0.831940 0.320160 0.810272
0.930298 0.320160 0.810272
0.000000 0.475189 0.810272
0.152954 0.475189 0.810272
0.292938 0.475189 0.810272
0.443390 0.475189 0.810272
0.591949 0.475189 0.810272
0.721527 0.475189 0.810272
0.831940 0.475189 0.810272
0.930298 0.475189 0.810272
0.000000 0.636017 0.810272
0.152954 0.636017 0.810272
0.292938 0.636017 0.810272
0.443390 0.636017 0.810272
0.591949 0.636017 0.810272
0.721527 0.636017 0.810272
0.831940 0.636017 0.810272
0.930298 0.636017 0.810272
0.000000 0.779663 0.810272
0.152954 0.779663 0.810272
0.292938 0.779663 0.810272
0.443390 0.779663 0.810272
0.591949 0.779663 0.810272
0.721527 0.779663 0.810272
0.831940 0.779663 0.810272
0.930298 0.779663 0.810272
0.000000 0.908081 0.810272
0.152954 0.908081 0.810272
0.292938 0.908081 0.810272
0.443390 0.908081 0.810272
0.591949 0.908081 0.810272
0.721527 0.908081 0.810272
0.831940 0.908081 0.810272
0.930298 0.908081 0.810272
0.000000 0.000000 0.921112
0.152954 0.000000 0.921112
0.292938 0.000000 0.921112
0.443390 0.000000 0.921112
0.591949 0.000000 0.921112
0.721527 0.000000 0.921112
0.831940 0.000000 0.921112
0.930298 0.000000 0.921112
0.000000 0.083557 0.921112
0.152954 0.083557 0.921112
0.292938 0.083557 0.921112
0.443390 0.083557 0.921112
0.591949 0.083557 0.921112
0.721527 0.083557 0.921112
0.831940 0.083557 0.921112
0.930298 0.083557 0.921112
0.000000 0.190643 0.921112
0.152954 0.190643 0.921112
0.292938 0.190643 0.921112
0.443390 0.190643 0.921112
0.591949 0.190643 0.921112
0.721527 0.190643 0.921112
0.831940 0.190643 0.921112
0.930298 0.190643 0.921112
0.000000 0.320160 0.921112
0.152954 0.320160 0.921112
0.292938 0.320160 0.921112
0.443390 0.320160 0.921112
0.591949 0.320160 0.921112
0.721527 0.320160 0.921112
0.831940 0.320160 0.921112
0.930298 0.320160 0.921112
0.000000 0.475189 0.921112
0.152954 0.475189 0.921112
0.292938 0.475189 0.921112
0.443390 0.475189 0.921112
0.591949 0.475189 0.921112
0.721527 0.475189 0.921112
0.831940 0.475189 0.921112
0.930298 0.475189 0.921112
0.000000 0.636017 0.921112
0.152954 0.636017 0.921112
0.292938 0.636017 0.921112
0.443390 0.636017 0.921112
0.591949 0.636017 0.921112
0.721527 0.636017 0.921112
0.831940 0.636017 0.921112
0.930298 0.636017 0.921112
0.000000 0.779663 0.921112
0.152954 0.779663 0.921112
0.292938 0.779663 0.921112
0.443390 0.779663 0.921112
0.591949 0.779663 0.921112
0.721527 0.779663 0.921112
0.831940 0.779663 0.921112
0.930298 0.779663 0.921112
0.000000 0.908081 0.921112
0.152954 0.908081 0.921112
0.292938 0.908081 0.921112
0.443390 0.908081 0.921112
0.591949 0.908081 0.921112
0.721527 0.908081 0.921112
0.831940 0.908081 0.921112
0.930298 0.908081 0.921112
