libvisualresult/filter_cube/print.CUBE
#Created by: Adobe Photoshop Export Color Lookup Plugin
TITLE "相机滤镜调试.psd"
#LUT size
LUT_3D_SIZE 8
#data domain
#LUT data points
DOMAIN_MIN 0.000000 0.000000 0.000000
DOMAIN_MAX 0.903226 0.903226 0.903226
0.000000 0.000000 0.000000
0.049225 0.000000 0.000000
0.136414 0.000000 0.000000
0.247650 0.000000 0.000000
0.378082 0.000000 0.000000
0.524933 0.000000 0.000000
0.686340 0.000000 0.000000
0.860992 0.000000 0.000000
0.000000 0.250671 0.000000
0.049225 0.250671 0.000000
0.136414 0.250671 0.000000
0.247650 0.250671 0.000000
0.378082 0.250671 0.000000
0.524933 0.250671 0.000000
0.686340 0.250671 0.000000
0.860992 0.250671 0.000000
0.000000 0.400421 0.000000
0.049225 0.400421 0.000000
0.136414 0.400421 0.000000
0.247650 0.400421 0.000000
0.378082 0.400421 0.000000
0.524933 0.400421 0.000000
0.686340 0.400421 0.000000
0.860992 0.400421 0.000000
0.000000 0.526611 0.000000
0.049225 0.526611 0.000000
0.136414 0.526611 0.000000
0.247650 0.526611 0.000000
0.378082 0.526611 0.000000
0.524933 0.526611 0.000000
0.686340 0.526611 0.000000
0.860992 0.526611 0.000000
0.000000 0.639618 0.000000
0.049225 0.639618 0.000000
0.136414 0.639618 0.000000
0.247650 0.639618 0.000000
0.378082 0.639618 0.000000
0.524933 0.639618 0.000000
0.686340 0.639618 0.000000
0.860992 0.639618 0.000000
0.000000 0.743713 0.000000
0.049225 0.743713 0.000000
0.136414 0.743713 0.000000
0.247650 0.743713 0.000000
0.378082 0.743713 0.000000
0.524933 0.743713 0.000000
0.686340 0.743713 0.000000
0.860992 0.743713 0.000000
0.000000 0.841217 0.000000
0.049225 0.841217 0.000000
0.136414 0.841217 0.000000
0.247650 0.841217 0.000000
0.378082 0.841217 0.000000
0.524933 0.841217 0.000000
0.686340 0.841217 0.000000
0.860992 0.841217 0.000000
0.000000 0.933533 0.000000
0.049225 0.933533 0.000000
0.136414 0.933533 0.000000
0.247650 0.933533 0.000000
0.378082 0.933533 0.000000
0.524933 0.933533 0.000000
0.686340 0.933533 0.000000
0.860992 0.933533 0.000000
0.000000 0.000000 0.250671
0.049225 0.000000 0.250671
0.136414 0.000000 0.250671
0.247650 0.000000 0.250671
0.378082 0.000000 0.250671
0.524933 0.000000 0.250671
0.686340 0.000000 0.250671
0.860992 0.000000 0.250671
0.000000 0.250671 0.250671
0.049225 0.250671 0.250671
0.136414 0.250671 0.250671
0.247650 0.250671 0.250671
0.378082 0.250671 0.250671
0.524933 0.250671 0.250671
0.686340 0.250671 0.250671
0.860992 0.250671 0.250671
0.000000 0.400421 0.250671
0.049225 0.400421 0.250671
0.136414 0.400421 0.250671
0.247650 0.400421 0.250671
0.378082 0.400421 0.250671
0.524933 0.400421 0.250671
0.686340 0.400421 0.250671
0.860992 0.400421 0.250671
0.000000 0.526611 0.250671
0.049225 0.526611 0.250671
0.136414 0.526611 0.250671
0.247650 0.526611 0.250671
0.378082 0.526611 0.250671
0.524933 0.526611 0.250671
0.686340 0.526611 0.250671
0.860992 0.526611 0.250671
0.000000 0.639618 0.250671
0.049225 0.639618 0.250671
0.136414 0.639618 0.250671
0.247650 0.639618 0.250671
0.378082 0.639618 0.250671
0.524933 0.639618 0.250671
0.686340 0.639618 0.250671
0.860992 0.639618 0.250671
0.000000 0.743713 0.250671
0.049225 0.743713 0.250671
0.136414 0.743713 0.250671
0.247650 0.743713 0.250671
0.378082 0.743713 0.250671
0.524933 0.743713 0.250671
0.686340 0.743713 0.250671
0.860992 0.743713 0.250671
0.000000 0.841217 0.250671
0.049225 0.841217 0.250671
0.136414 0.841217 0.250671
0.247650 0.841217 0.250671
0.378082 0.841217 0.250671
0.524933 0.841217 0.250671
0.686340 0.841217 0.250671
0.860992 0.841217 0.250671
0.000000 0.933533 0.250671
0.049225 0.933533 0.250671
0.136414 0.933533 0.250671
0.247650 0.933533 0.250671
0.378082 0.933533 0.250671
0.524933 0.933533 0.250671
0.686340 0.933533 0.250671
0.860992 0.933533 0.250671
0.000000 0.000000 0.400421
0.049225 0.000000 0.400421
0.136414 0.000000 0.400421
0.247650 0.000000 0.400421
0.378082 0.000000 0.400421
0.524933 0.000000 0.400421
0.686340 0.000000 0.400421
0.860992 0.000000 0.400421
0.000000 0.250671 0.400421
0.049225 0.250671 0.400421
0.136414 0.250671 0.400421
0.247650 0.250671 0.400421
0.378082 0.250671 0.400421
0.524933 0.250671 0.400421
0.686340 0.250671 0.400421
0.860992 0.250671 0.400421
0.000000 0.400421 0.400421
0.049225 0.400421 0.400421
0.136414 0.400421 0.400421
0.247650 0.400421 0.400421
0.378082 0.400421 0.400421
0.524933 0.400421 0.400421
0.686340 0.400421 0.400421
0.860992 0.400421 0.400421
0.000000 0.526611 0.400421
0.049225 0.526611 0.400421
0.136414 0.526611 0.400421
0.247650 0.526611 0.400421
0.378082 0.526611 0.400421
0.524933 0.526611 0.400421
0.686340 0.526611 0.400421
0.860992 0.526611 0.400421
0.000000 0.639618 0.400421
0.049225 0.639618 0.400421
0.136414 0.639618 0.400421
0.247650 0.639618 0.400421
0.378082 0.639618 0.400421
0.524933 0.639618 0.400421
0.686340 0.639618 0.400421
0.860992 0.639618 0.400421
0.000000 0.743713 0.400421
0.049225 0.743713 0.400421
0.136414 0.743713 0.400421
0.247650 0.743713 0.400421
0.378082 0.743713 0.400421
0.524933 0.743713 0.400421
0.686340 0.743713 0.400421
0.860992 0.743713 0.400421
0.000000 0.841217 0.400421
0.049225 0.841217 0.400421
0.136414 0.841217 0.400421
0.247650 0.841217 0.400421
0.378082 0.841217 0.400421
0.524933 0.841217 0.400421
0.686340 0.841217 0.400421
0.860992 0.841217 0.400421
0.000000 0.933533 0.400421
0.049225 0.933533 0.400421
0.136414 0.933533 0.400421
0.247650 0.933533 0.400421
0.378082 0.933533 0.400421
0.524933 0.933533 0.400421
0.686340 0.933533 0.400421
0.860992 0.933533 0.400421
0.000000 0.000000 0.526611
0.049225 0.000000 0.526611
0.136414 0.000000 0.526611
0.247650 0.000000 0.526611
0.378082 0.000000 0.526611
0.524933 0.000000 0.526611
0.686340 0.000000 0.526611
0.860992 0.000000 0.526611
0.000000 0.250671 0.526611
0.049225 0.250671 0.526611
0.136414 0.250671 0.526611
0.247650 0.250671 0.526611
0.378082 0.250671 0.526611
0.524933 0.250671 0.526611
0.686340 0.250671 0.526611
0.860992 0.250671 0.526611
0.000000 0.400421 0.526611
0.049225 0.400421 0.526611
0.136414 0.400421 0.526611
0.247650 0.400421 0.526611
0.378082 0.400421 0.526611
0.524933 0.400421 0.526611
0.686340 0.400421 0.526611
0.860992 0.400421 0.526611
0.000000 0.526611 0.526611
0.049225 0.526611 0.526611
0.136414 0.526611 0.526611
0.247650 0.526611 0.526611
0.378082 0.526611 0.526611
0.524933 0.526611 0.526611
0.686340 0.526611 0.526611
0.860992 0.526611 0.526611
0.000000 0.639618 0.526611
0.049225 0.639618 0.526611
0.136414 0.639618 0.526611
0.247650 0.639618 0.526611
0.378082 0.639618 0.526611
0.524933 0.639618 0.526611
0.686340 0.639618 0.526611
0.860992 0.639618 0.526611
0.000000 0.743713 0.526611
0.049225 0.743713 0.526611
0.136414 0.743713 0.526611
0.247650 0.743713 0.526611
0.378082 0.743713 0.526611
0.524933 0.743713 0.526611
0.686340 0.743713 0.526611
0.860992 0.743713 0.526611
0.000000 0.841217 0.526611
0.049225 0.841217 0.526611
0.136414 0.841217 0.526611
0.247650 0.841217 0.526611
0.378082 0.841217 0.526611
0.524933 0.841217 0.526611
0.686340 0.841217 0.526611
0.860992 0.841217 0.526611
0.000000 0.933533 0.526611
0.049225 0.933533 0.526611
0.136414 0.933533 0.526611
0.247650 0.933533 0.526611
0.378082 0.933533 0.526611
0.524933 0.933533 0.526611
0.686340 0.933533 0.526611
0.860992 0.933533 0.526611
0.000000 0.000000 0.639618
0.049225 0.000000 0.639618
0.136414 0.000000 0.639618
0.247650 0.000000 0.639618
0.378082 0.000000 0.639618
0.524933 0.000000 0.639618
0.686340 0.000000 0.639618
0.860992 0.000000 0.639618
0.000000 0.250671 0.639618
0.049225 0.250671 0.639618
0.136414 0.250671 0.639618
0.247650 0.250671 0.639618
0.378082 0.250671 0.639618
0.524933 0.250671 0.639618
0.686340 0.250671 0.639618
0.860992 0.250671 0.639618
0.000000 0.400421 0.639618
0.049225 0.400421 0.639618
0.136414 0.400421 0.639618
0.247650 0.400421 0.639618
0.378082 0.400421 0.639618
0.524933 0.400421 0.639618
0.686340 0.400421 0.639618
0.860992 0.400421 0.639618
0.000000 0.526611 0.639618
0.049225 0.526611 0.639618
0.136414 0.526611 0.639618
0.247650 0.526611 0.639618
0.378082 0.526611 0.639618
0.524933 0.526611 0.639618
0.686340 0.526611 0.639618
0.860992 0.526611 0.639618
0.000000 0.639618 0.639618
0.049225 0.639618 0.639618
0.136414 0.639618 0.639618
0.247650 0.639618 0.639618
0.378082 0.639618 0.639618
0.524933 0.639618 0.639618
0.686340 0.639618 0.639618
0.860992 0.639618 0.639618
0.000000 0.743713 0.639618
0.049225 0.743713 0.639618
0.136414 0.743713 0.639618
0.247650 0.743713 0.639618
0.378082 0.743713 0.639618
0.524933 0.743713 0.639618
0.686340 0.743713 0.639618
0.860992 0.743713 0.639618
0.000000 0.841217 0.639618
0.049225 0.841217 0.639618
0.136414 0.841217 0.639618
0.247650 0.841217 0.639618
0.378082 0.841217 0.639618
0.524933 0.841217 0.639618
0.686340 0.841217 0.639618
0.860992 0.841217 0.639618
0.000000 0.933533 0.639618
0.049225 0.933533 0.639618
0.136414 0.933533 0.639618
0.247650 0.933533 0.639618
0.378082 0.933533 0.639618
0.524933 0.933533 0.639618
0.686340 0.933533 0.639618
0.860992 0.933533 0.639618
0.000000 0.000000 0.743713
0.049225 0.000000 0.743713
0.136414 0.000000 0.743713
0.247650 0.000000 0.743713
0.378082 0.000000 0.743713
0.524933 0.000000 0.743713
0.686340 0.000000 0.743713
0.860992 0.000000 0.743713
0.000000 0.250671 0.743713
0.049225 0.250671 0.743713
0.136414 0.250671 0.743713
0.247650 0.250671 0.743713
0.378082 0.250671 0.743713
0.524933 0.250671 0.743713
0.686340 0.250671 0.743713
0.860992 0.250671 0.743713
0.000000 0.400421 0.743713
0.049225 0.400421 0.743713
0.136414 0.400421 0.743713
0.247650 0.400421 0.743713
0.378082 0.400421 0.743713
0.524933 0.400421 0.743713
0.686340 0.400421 0.743713
0.860992 0.400421 0.743713
0.000000 0.526611 0.743713
0.049225 0.526611 0.743713
0.136414 0.526611 0.743713
0.247650 0.526611 0.743713
0.378082 0.526611 0.743713
0.524933 0.526611 0.743713
0.686340 0.526611 0.743713
0.860992 0.526611 0.743713
0.000000 0.639618 0.743713
0.049225 0.639618 0.743713
0.136414 0.639618 0.743713
0.247650 0.639618 0.743713
0.378082 0.639618 0.743713
0.524933 0.639618 0.743713
0.686340 0.639618 0.743713
0.860992 0.639618 0.743713
0.000000 0.743713 0.743713
0.049225 0.743713 0.743713
0.136414 0.743713 0.743713
0.247650 0.743713 0.743713
0.378082 0.743713 0.743713
0.524933 0.743713 0.743713
0.686340 0.743713 0.743713
0.860992 0.743713 0.743713
0.000000 0.841217 0.743713
0.049225 0.841217 0.743713
0.136414 0.841217 0.743713
0.247650 0.841217 0.743713
0.378082 0.841217 0.743713
0.524933 0.841217 0.743713
0.686340 0.841217 0.743713
0.860992 0.841217 0.743713
0.000000 0.933533 0.743713
0.049225 0.933533 0.743713
0.136414 0.933533 0.743713
0.247650 0.933533 0.743713
0.378082 0.933533 0.743713
0.524933 0.933533 0.743713
0.686340 0.933533 0.743713
0.860992 0.933533 0.743713
0.000000 0.000000 0.841217
0.049225 0.000000 0.841217
0.136414 0.000000 0.841217
0.247650 0.000000 0.841217
0.378082 0.000000 0.841217
0.524933 0.000000 0.841217
0.686340 0.000000 0.841217
0.860992 0.000000 0.841217
0.000000 0.250671 0.841217
0.049225 0.250671 0.841217
0.136414 0.250671 0.841217
0.247650 0.250671 0.841217
0.378082 0.250671 0.841217
0.524933 0.250671 0.841217
0.686340 0.250671 0.841217
0.860992 0.250671 0.841217
0.000000 0.400421 0.841217
0.049225 0.400421 0.841217
0.136414 0.400421 0.841217
0.247650 0.400421 0.841217
0.378082 0.400421 0.841217
0.524933 0.400421 0.841217
0.686340 0.400421 0.841217
0.860992 0.400421 0.841217
0.000000 0.526611 0.841217
0.049225 0.526611 0.841217
0.136414 0.526611 0.841217
0.247650 0.526611 0.841217
0.378082 0.526611 0.841217
0.524933 0.526611 0.841217
0.686340 0.526611 0.841217
0.860992 0.526611 0.841217
0.000000 0.639618 0.841217
0.049225 0.639618 0.841217
0.136414 0.639618 0.841217
0.247650 0.639618 0.841217
0.378082 0.639618 0.841217
0.524933 0.639618 0.841217
0.686340 0.639618 0.841217
0.860992 0.639618 0.841217
0.000000 0.743713 0.841217
0.049225 0.743713 0.841217
0.136414 0.743713 0.841217
0.247650 0.743713 0.841217
0.378082 0.743713 0.841217
0.524933 0.743713 0.841217
0.686340 0.743713 0.841217
0.860992 0.743713 0.841217
0.000000 0.841217 0.841217
0.049225 0.841217 0.841217
0.136414 0.841217 0.841217
0.247650 0.841217 0.841217
0.378082 0.841217 0.841217
0.524933 0.841217 0.841217
0.686340 0.841217 0.841217
0.860992 0.841217 0.841217
0.000000 0.933533 0.841217
0.049225 0.933533 0.841217
0.136414 0.933533 0.841217
0.247650 0.933533 0.841217
0.378082 0.933533 0.841217
0.524933 0.933533 0.841217
0.686340 0.933533 0.841217
0.860992 0.933533 0.841217
0.000000 0.000000 0.933533
0.049225 0.000000 0.933533
0.136414 0.000000 0.933533
0.247650 0.000000 0.933533
0.378082 0.000000 0.933533
0.524933 0.000000 0.933533
0.686340 0.000000 0.933533
0.860992 0.000000 0.933533
0.000000 0.250671 0.933533
0.049225 0.250671 0.933533
0.136414 0.250671 0.933533
0.247650 0.250671 0.933533
0.378082 0.250671 0.933533
0.524933 0.250671 0.933533
0.686340 0.250671 0.933533
0.860992 0.250671 0.933533
0.000000 0.400421 0.933533
0.049225 0.400421 0.933533
0.136414 0.400421 0.933533
0.247650 0.400421 0.933533
0.378082 0.400421 0.933533
0.524933 0.400421 0.933533
0.686340 0.400421 0.933533
0.860992 0.400421 0.933533
0.000000 0.526611 0.933533
0.049225 0.526611 0.933533
0.136414 0.526611 0.933533
0.247650 0.526611 0.933533
0.378082 0.526611 0.933533
0.524933 0.526611 0.933533
0.686340 0.526611 0.933533
0.860992 0.526611 0.933533
0.000000 0.639618 0.933533
0.049225 0.639618 0.933533
0.136414 0.639618 0.933533
0.247650 0.639618 0.933533
0.378082 0.639618 0.933533
0.524933 0.639618 0.933533
0.686340 0.639618 0.933533
0.860992 0.639618 0.933533
0.000000 0.743713 0.933533
0.049225 0.743713 0.933533
0.136414 0.743713 0.933533
0.247650 0.743713 0.933533
0.378082 0.743713 0.933533
0.524933 0.743713 0.933533
0.686340 0.743713 0.933533
0.860992 0.743713 0.933533
0.000000 0.841217 0.933533
0.049225 0.841217 0.933533
0.136414 0.841217 0.933533
0.247650 0.841217 0.933533
0.378082 0.841217 0.933533
0.524933 0.841217 0.933533
0.686340 0.841217 0.933533
0.860992 0.841217 0.933533
0.000000 0.933533 0.933533
0.049225 0.933533 0.933533
0.136414 0.933533 0.933533
0.247650 0.933533 0.933533
0.378082 0.933533 0.933533
0.524933 0.933533 0.933533
0.686340 0.933533 0.933533
0.860992 0.933533 0.933533
