libvisualresult/filter_cube/print.CUBE
#Created by: Adobe Photoshop Export Color Lookup Plugin
TITLE "相机滤镜调试.psd"
#LUT size
LUT_3D_SIZE 5
#data domain
#LUT data points
DOMAIN_MIN 0.000000 0.000000 0.000000
DOMAIN_MAX 0.903226 0.903226 0.903226
0.000000 0.000000 0.000000
0.112091 0.000000 0.000000
0.310669 0.000000 0.000000
0.563995 0.000000 0.000000
0.860992 0.000000 0.000000
0.000000 0.365875 0.000000
0.112091 0.365875 0.000000
0.310669 0.365875 0.000000
0.563995 0.365875 0.000000
0.860992 0.365875 0.000000
0.000000 0.584412 0.000000
0.112091 0.584412 0.000000
0.310669 0.584412 0.000000
0.563995 0.584412 0.000000
0.860992 0.584412 0.000000
0.000000 0.768646 0.000000
0.112091 0.768646 0.000000
0.310669 0.768646 0.000000
0.563995 0.768646 0.000000
0.860992 0.768646 0.000000
0.000000 0.933533 0.000000
0.112091 0.933533 0.000000
0.310669 0.933533 0.000000
0.563995 0.933533 0.000000
0.860992 0.933533 0.000000
0.000000 0.000000 0.365875
0.112091 0.000000 0.365875
0.310669 0.000000 0.365875
0.563995 0.000000 0.365875
0.860992 0.000000 0.365875
0.000000 0.365875 0.365875
0.112091 0.365875 0.365875
0.310669 0.365875 0.365875
0.563995 0.365875 0.365875
0.860992 0.365875 0.365875
0.000000 0.584412 0.365875
0.112091 0.584412 0.365875
0.310669 0.584412 0.365875
0.563995 0.584412 0.365875
0.860992 0.584412 0.365875
0.000000 0.768646 0.365875
0.112091 0.768646 0.365875
0.310669 0.768646 0.365875
0.563995 0.768646 0.365875
0.860992 0.768646 0.365875
0.000000 0.933533 0.365875
0.112091 0.933533 0.365875
0.310669 0.933533 0.365875
0.563995 0.933533 0.365875
0.860992 0.933533 0.365875
0.000000 0.000000 0.584412
0.112091 0.000000 0.584412
0.310669 0.000000 0.584412
0.563995 0.000000 0.584412
0.860992 0.000000 0.584412
0.000000 0.365875 0.584412
0.112091 0.365875 0.584412
0.310669 0.365875 0.584412
0.563995 0.365875 0.584412
0.860992 0.365875 0.584412
0.000000 0.584412 0.584412
0.112091 0.584412 0.584412
0.310669 0.584412 0.584412
0.563995 0.584412 0.584412
0.860992 0.584412 0.584412
0.000000 0.768646 0.584412
0.112091 0.768646 0.584412
0.310669 0.768646 0.584412
0.563995 0.768646 0.584412
0.860992 0.768646 0.584412
0.000000 0.933533 0.584412
0.112091 0.933533 0.584412
0.310669 0.933533 0.584412
0.563995 0.933533 0.584412
0.860992 0.933533 0.584412
0.000000 0.000000 0.768646
0.112091 0.000000 0.768646
0.310669 0.000000 0.768646
0.563995 0.000000 0.768646
0.860992 0.000000 0.768646
0.000000 0.365875 0.768646
0.112091 0.365875 0.768646
0.310669 0.365875 0.768646
0.563995 0.365875 0.768646
0.860992 0.365875 0.768646
0.000000 0.584412 0.768646
0.112091 0.584412 0.768646
0.310669 0.584412 0.768646
0.563995 0.584412 0.768646
0.860992 0.584412 0.768646
0.000000 0.768646 0.768646
0.112091 0.768646 0.768646
0.310669 0.768646 0.768646
0.563995 0.768646 0.768646
0.860992 0.768646 0.768646
0.000000 0.933533 0.768646
0.112091 0.933533 0.768646
0.310669 0.933533 0.768646
0.563995 0.933533 0.768646
0.860992 0.933533 0.768646
0.000000 0.000000 0.933533
0.112091 0.000000 0.933533
0.310669 0.000000 0.933533
0.563995 0.000000 0.933533
0.860992 0.000000 0.933533
0.000000 0.365875 0.933533
0.112091 0.365875 0.933533
0.310669 0.365875 0.933533
0.563995 0.365875 0.933533
0.860992 0.365875 0.933533
0.000000 0.584412 0.933533
0.112091 0.584412 0.933533
0.310669 0.584412 0.933533
0.563995 0.584412 0.933533
0.860992 0.584412 0.933533
0.000000 0.768646 0.933533
0.112091 0.768646 0.933533
0.310669 0.768646 0.933533
0.563995 0.768646 0.933533
0.860992 0.768646 0.933533
0.000000 0.933533 0.933533
0.112091 0.933533 0.933533
0.310669 0.933533 0.933533
0.563995 0.933533 0.933533
0.860992 0.933533 0.933533
