libvisualresult/filter_cube/print.CUBE
#Created by: Adobe Photoshop Export Color Lookup Plugin
TITLE "相机滤镜调试.psd"
#LUT size
LUT_3D_SIZE 32
#data domain
DOMAIN_MIN 0.0 0.0 0.0
DOMAIN_MAX 1.0 1.0 1.0
#LUT data points
0.000000 0.000000 0.000000
0.006409 0.000000 0.000000
0.017761 0.000000 0.000000
0.032257 0.000000 0.000000
0.049225 0.000000 0.000000
0.068329 0.000000 0.000000
0.089355 0.000000 0.000000
0.112091 0.000000 0.000000
0.136414 0.000000 0.000000
0.162231 0.000000 0.000000
0.189423 0.000000 0.000000
0.217926 0.000000 0.000000
0.247650 0.000000 0.000000
0.278595 0.000000 0.000000
0.310669 0.000000 0.000000
0.343842 0.000000 0.000000
0.378082 0.000000 0.000000
0.413361 0.000000 0.000000
0.449585 0.000000 0.000000
0.486816 0.000000 0.000000
0.524933 0.000000 0.000000
0.563995 0.000000 0.000000
0.603943 0.000000 0.000000
0.644714 0.000000 0.000000
0.686340 0.000000 0.000000
0.728821 0.000000 0.000000
0.772095 0.000000 0.000000
0.816162 0.000000 0.000000
0.860992 0.000000 0.000000
0.906586 0.000000 0.000000
0.952942 0.000000 0.000000
1.000000 0.000000 0.000000
0.000000 0.084320 0.000000
0.006409 0.084320 0.000000
0.017761 0.084320 0.000000
0.032257 0.084320 0.000000
0.049225 0.084320 0.000000
0.068329 0.084320 0.000000
0.089355 0.084320 0.000000
0.112091 0.084320 0.000000
0.136414 0.084320 0.000000
0.162231 0.084320 0.000000
0.189423 0.084320 0.000000
0.217926 0.084320 0.000000
0.247650 0.084320 0.000000
0.278595 0.084320 0.000000
0.310669 0.084320 0.000000
0.343842 0.084320 0.000000
0.378082 0.084320 0.000000
0.413361 0.084320 0.000000
0.449585 0.084320 0.000000
0.486816 0.084320 0.000000
0.524933 0.084320 0.000000
0.563995 0.084320 0.000000
0.603943 0.084320 0.000000
0.644714 0.084320 0.000000
0.686340 0.084320 0.000000
0.728821 0.084320 0.000000
0.772095 0.084320 0.000000
0.816162 0.084320 0.000000
0.860992 0.084320 0.000000
0.906586 0.084320 0.000000
0.952942 0.084320 0.000000
1.000000 0.084320 0.000000
0.000000 0.154236 0.000000
0.006409 0.154236 0.000000
0.017761 0.154236 0.000000
0.032257 0.154236 0.000000
0.049225 0.154236 0.000000
0.068329 0.154236 0.000000
0.089355 0.154236 0.000000
0.112091 0.154236 0.000000
0.136414 0.154236 0.000000
0.162231 0.154236 0.000000
0.189423 0.154236 0.000000
0.217926 0.154236 0.000000
0.247650 0.154236 0.000000
0.278595 0.154236 0.000000
0.310669 0.154236 0.000000
0.343842 0.154236 0.000000
0.378082 0.154236 0.000000
0.413361 0.154236 0.000000
0.449585 0.154236 0.000000
0.486816 0.154236 0.000000
0.524933 0.154236 0.000000
0.563995 0.154236 0.000000
0.603943 0.154236 0.000000
0.644714 0.154236 0.000000
0.686340 0.154236 0.000000
0.728821 0.154236 0.000000
0.772095 0.154236 0.000000
0.816162 0.154236 0.000000
0.860992 0.154236 0.000000
0.906586 0.154236 0.000000
0.952942 0.154236 0.000000
1.000000 0.154236 0.000000
0.000000 0.206390 0.000000
0.006409 0.206390 0.000000
0.017761 0.206390 0.000000
0.032257 0.206390 0.000000
0.049225 0.206390 0.000000
0.068329 0.206390 0.000000
0.089355 0.206390 0.000000
0.112091 0.206390 0.000000
0.136414 0.206390 0.000000
0.162231 0.206390 0.000000
0.189423 0.206390 0.000000
0.217926 0.206390 0.000000
0.247650 0.206390 0.000000
0.278595 0.206390 0.000000
0.310669 0.206390 0.000000
0.343842 0.206390 0.000000
0.378082 0.206390 0.000000
0.413361 0.206390 0.000000
0.449585 0.206390 0.000000
0.486816 0.206390 0.000000
0.524933 0.206390 0.000000
0.563995 0.206390 0.000000
0.603943 0.206390 0.000000
0.644714 0.206390 0.000000
0.686340 0.206390 0.000000
0.728821 0.206390 0.000000
0.772095 0.206390 0.000000
0.816162 0.206390 0.000000
0.860992 0.206390 0.000000
0.906586 0.206390 0.000000
0.952942 0.206390 0.000000
1.000000 0.206390 0.000000
0.000000 0.250671 0.000000
0.006409 0.250671 0.000000
0.017761 0.250671 0.000000
0.032257 0.250671 0.000000
0.049225 0.250671 0.000000
0.068329 0.250671 0.000000
0.089355 0.250671 0.000000
0.112091 0.250671 0.000000
0.136414 0.250671 0.000000
0.162231 0.250671 0.000000
0.189423 0.250671 0.000000
0.217926 0.250671 0.000000
0.247650 0.250671 0.000000
0.278595 0.250671 0.000000
0.310669 0.250671 0.000000
0.343842 0.250671 0.000000
0.378082 0.250671 0.000000
0.413361 0.250671 0.000000
0.449585 0.250671 0.000000
0.486816 0.250671 0.000000
0.524933 0.250671 0.000000
0.563995 0.250671 0.000000
0.603943 0.250671 0.000000
0.644714 0.250671 0.000000
0.686340 0.250671 0.000000
0.728821 0.250671 0.000000
0.772095 0.250671 0.000000
0.816162 0.250671 0.000000
0.860992 0.250671 0.000000
0.906586 0.250671 0.000000
0.952942 0.250671 0.000000
1.000000 0.250671 0.000000
0.000000 0.291473 0.000000
0.006409 0.291473 0.000000
0.017761 0.291473 0.000000
0.032257 0.291473 0.000000
0.049225 0.291473 0.000000
0.068329 0.291473 0.000000
0.089355 0.291473 0.000000
0.112091 0.291473 0.000000
0.136414 0.291473 0.000000
0.162231 0.291473 0.000000
0.189423 0.291473 0.000000
0.217926 0.291473 0.000000
0.247650 0.291473 0.000000
0.278595 0.291473 0.000000
0.310669 0.291473 0.000000
0.343842 0.291473 0.000000
0.378082 0.291473 0.000000
0.413361 0.291473 0.000000
0.449585 0.291473 0.000000
0.486816 0.291473 0.000000
0.524933 0.291473 0.000000
0.563995 0.291473 0.000000
0.603943 0.291473 0.000000
0.644714 0.291473 0.000000
0.686340 0.291473 0.000000
0.728821 0.291473 0.000000
0.772095 0.291473 0.000000
0.816162 0.291473 0.000000
0.860992 0.291473 0.000000
0.906586 0.291473 0.000000
0.952942 0.291473 0.000000
1.000000 0.291473 0.000000
0.000000 0.329681 0.000000
0.006409 0.329681 0.000000
0.017761 0.329681 0.000000
0.032257 0.329681 0.000000
0.049225 0.329681 0.000000
0.068329 0.329681 0.000000
0.089355 0.329681 0.000000
0.112091 0.329681 0.000000
0.136414 0.329681 0.000000
0.162231 0.329681 0.000000
0.189423 0.329681 0.000000
0.217926 0.329681 0.000000
0.247650 0.329681 0.000000
0.278595 0.329681 0.000000
0.310669 0.329681 0.000000
0.343842 0.329681 0.000000
0.378082 0.329681 0.000000
0.413361 0.329681 0.000000
0.449585 0.329681 0.000000
0.486816 0.329681 0.000000
0.524933 0.329681 0.000000
0.563995 0.329681 0.000000
0.603943 0.329681 0.000000
0.644714 0.329681 0.000000
0.686340 0.329681 0.000000
0.728821 0.329681 0.000000
0.772095 0.329681 0.000000
0.816162 0.329681 0.000000
0.860992 0.329681 0.000000
0.906586 0.329681 0.000000
0.952942 0.329681 0.000000
1.000000 0.329681 0.000000
0.000000 0.365875 0.000000
0.006409 0.365875 0.000000
0.017761 0.365875 0.000000
0.032257 0.365875 0.000000
0.049225 0.365875 0.000000
0.068329 0.365875 0.000000
0.089355 0.365875 0.000000
0.112091 0.365875 0.000000
0.136414 0.365875 0.000000
0.162231 0.365875 0.000000
0.189423 0.365875 0.000000
0.217926 0.365875 0.000000
0.247650 0.365875 0.000000
0.278595 0.365875 0.000000
0.310669 0.365875 0.000000
0.343842 0.365875 0.000000
0.378082 0.365875 0.000000
0.413361 0.365875 0.000000
0.449585 0.365875 0.000000
0.486816 0.365875 0.000000
0.524933 0.365875 0.000000
0.563995 0.365875 0.000000
0.603943 0.365875 0.000000
0.644714 0.365875 0.000000
0.686340 0.365875 0.000000
0.728821 0.365875 0.000000
0.772095 0.365875 0.000000
0.816162 0.365875 0.000000
0.860992 0.365875 0.000000
0.906586 0.365875 0.000000
0.952942 0.365875 0.000000
1.000000 0.365875 0.000000
0.000000 0.400421 0.000000
0.006409 0.400421 0.000000
0.017761 0.400421 0.000000
0.032257 0.400421 0.000000
0.049225 0.400421 0.000000
0.068329 0.400421 0.000000
0.089355 0.400421 0.000000
0.112091 0.400421 0.000000
0.136414 0.400421 0.000000
0.162231 0.400421 0.000000
0.189423 0.400421 0.000000
0.217926 0.400421 0.000000
0.247650 0.400421 0.000000
0.278595 0.400421 0.000000
0.310669 0.400421 0.000000
0.343842 0.400421 0.000000
0.378082 0.400421 0.000000
0.413361 0.400421 0.000000
0.449585 0.400421 0.000000
0.486816 0.400421 0.000000
0.524933 0.400421 0.000000
0.563995 0.400421 0.000000
0.603943 0.400421 0.000000
0.644714 0.400421 0.000000
0.686340 0.400421 0.000000
0.728821 0.400421 0.000000
0.772095 0.400421 0.000000
0.816162 0.400421 0.000000
0.860992 0.400421 0.000000
0.906586 0.400421 0.000000
0.952942 0.400421 0.000000
1.000000 0.400421 0.000000
0.000000 0.433594 0.000000
0.006409 0.433594 0.000000
0.017761 0.433594 0.000000
0.032257 0.433594 0.000000
0.049225 0.433594 0.000000
0.068329 0.433594 0.000000
0.089355 0.433594 0.000000
0.112091 0.433594 0.000000
0.136414 0.433594 0.000000
0.162231 0.433594 0.000000
0.189423 0.433594 0.000000
0.217926 0.433594 0.000000
0.247650 0.433594 0.000000
0.278595 0.433594 0.000000
0.310669 0.433594 0.000000
0.343842 0.433594 0.000000
0.378082 0.433594 0.000000
0.413361 0.433594 0.000000
0.449585 0.433594 0.000000
0.486816 0.433594 0.000000
0.524933 0.433594 0.000000
0.563995 0.433594 0.000000
0.603943 0.433594 0.000000
0.644714 0.433594 0.000000
0.686340 0.433594 0.000000
0.728821 0.433594 0.000000
0.772095 0.433594 0.000000
0.816162 0.433594 0.000000
0.860992 0.433594 0.000000
0.906586 0.433594 0.000000
0.952942 0.433594 0.000000
1.000000 0.433594 0.000000
0.000000 0.465576 0.000000
0.006409 0.465576 0.000000
0.017761 0.465576 0.000000
0.032257 0.465576 0.000000
0.049225 0.465576 0.000000
0.068329 0.465576 0.000000
0.089355 0.465576 0.000000
0.112091 0.465576 0.000000
0.136414 0.465576 0.000000
0.162231 0.465576 0.000000
0.189423 0.465576 0.000000
0.217926 0.465576 0.000000
0.247650 0.465576 0.000000
0.278595 0.465576 0.000000
0.310669 0.465576 0.000000
0.343842 0.465576 0.000000
0.378082 0.465576 0.000000
0.413361 0.465576 0.000000
0.449585 0.465576 0.000000
0.486816 0.465576 0.000000
0.524933 0.465576 0.000000
0.563995 0.465576 0.000000
0.603943 0.465576 0.000000
0.644714 0.465576 0.000000
0.686340 0.465576 0.000000
0.728821 0.465576 0.000000
0.772095 0.465576 0.000000
0.816162 0.465576 0.000000
0.860992 0.465576 0.000000
0.906586 0.465576 0.000000
0.952942 0.465576 0.000000
1.000000 0.465576 0.000000
0.000000 0.496552 0.000000
0.006409 0.496552 0.000000
0.017761 0.496552 0.000000
0.032257 0.496552 0.000000
0.049225 0.496552 0.000000
0.068329 0.496552 0.000000
0.089355 0.496552 0.000000
0.112091 0.496552 0.000000
0.136414 0.496552 0.000000
0.162231 0.496552 0.000000
0.189423 0.496552 0.000000
0.217926 0.496552 0.000000
0.247650 0.496552 0.000000
0.278595 0.496552 0.000000
0.310669 0.496552 0.000000
0.343842 0.496552 0.000000
0.378082 0.496552 0.000000
0.413361 0.496552 0.000000
0.449585 0.496552 0.000000
0.486816 0.496552 0.000000
0.524933 0.496552 0.000000
0.563995 0.496552 0.000000
0.603943 0.496552 0.000000
0.644714 0.496552 0.000000
0.686340 0.496552 0.000000
0.728821 0.496552 0.000000
0.772095 0.496552 0.000000
0.816162 0.496552 0.000000
0.860992 0.496552 0.000000
0.906586 0.496552 0.000000
0.952942 0.496552 0.000000
1.000000 0.496552 0.000000
0.000000 0.526611 0.000000
0.006409 0.526611 0.000000
0.017761 0.526611 0.000000
0.032257 0.526611 0.000000
0.049225 0.526611 0.000000
0.068329 0.526611 0.000000
0.089355 0.526611 0.000000
0.112091 0.526611 0.000000
0.136414 0.526611 0.000000
0.162231 0.526611 0.000000
0.189423 0.526611 0.000000
0.217926 0.526611 0.000000
0.247650 0.526611 0.000000
0.278595 0.526611 0.000000
0.310669 0.526611 0.000000
0.343842 0.526611 0.000000
0.378082 0.526611 0.000000
0.413361 0.526611 0.000000
0.449585 0.526611 0.000000
0.486816 0.526611 0.000000
0.524933 0.526611 0.000000
0.563995 0.526611 0.000000
0.603943 0.526611 0.000000
0.644714 0.526611 0.000000
0.686340 0.526611 0.000000
0.728821 0.526611 0.000000
0.772095 0.526611 0.000000
0.816162 0.526611 0.000000
0.860992 0.526611 0.000000
0.906586 0.526611 0.000000
0.952942 0.526611 0.000000
1.000000 0.526611 0.000000
0.000000 0.555878 0.000000
0.006409 0.555878 0.000000
0.017761 0.555878 0.000000
0.032257 0.555878 0.000000
0.049225 0.555878 0.000000
0.068329 0.555878 0.000000
0.089355 0.555878 0.000000
0.112091 0.555878 0.000000
0.136414 0.555878 0.000000
0.162231 0.555878 0.000000
0.189423 0.555878 0.000000
0.217926 0.555878 0.000000
0.247650 0.555878 0.000000
0.278595 0.555878 0.000000
0.310669 0.555878 0.000000
0.343842 0.555878 0.000000
0.378082 0.555878 0.000000
0.413361 0.555878 0.000000
0.449585 0.555878 0.000000
0.486816 0.555878 0.000000
0.524933 0.555878 0.000000
0.563995 0.555878 0.000000
0.603943 0.555878 0.000000
0.644714 0.555878 0.000000
0.686340 0.555878 0.000000
0.728821 0.555878 0.000000
0.772095 0.555878 0.000000
0.816162 0.555878 0.000000
0.860992 0.555878 0.000000
0.906586 0.555878 0.000000
0.952942 0.555878 0.000000
1.000000 0.555878 0.000000
0.000000 0.584412 0.000000
0.006409 0.584412 0.000000
0.017761 0.584412 0.000000
0.032257 0.584412 0.000000
0.049225 0.584412 0.000000
0.068329 0.584412 0.000000
0.089355 0.584412 0.000000
0.112091 0.584412 0.000000
0.136414 0.584412 0.000000
0.162231 0.584412 0.000000
0.189423 0.584412 0.000000
0.217926 0.584412 0.000000
0.247650 0.584412 0.000000
0.278595 0.584412 0.000000
0.310669 0.584412 0.000000
0.343842 0.584412 0.000000
0.378082 0.584412 0.000000
0.413361 0.584412 0.000000
0.449585 0.584412 0.000000
0.486816 0.584412 0.000000
0.524933 0.584412 0.000000
0.563995 0.584412 0.000000
0.603943 0.584412 0.000000
0.644714 0.584412 0.000000
0.686340 0.584412 0.000000
0.728821 0.584412 0.000000
0.772095 0.584412 0.000000
0.816162 0.584412 0.000000
0.860992 0.584412 0.000000
0.906586 0.584412 0.000000
0.952942 0.584412 0.000000
1.000000 0.584412 0.000000
0.000000 0.612305 0.000000
0.006409 0.612305 0.000000
0.017761 0.612305 0.000000
0.032257 0.612305 0.000000
0.049225 0.612305 0.000000
0.068329 0.612305 0.000000
0.089355 0.612305 0.000000
0.112091 0.612305 0.000000
0.136414 0.612305 0.000000
0.162231 0.612305 0.000000
0.189423 0.612305 0.000000
0.217926 0.612305 0.000000
0.247650 0.612305 0.000000
0.278595 0.612305 0.000000
0.310669 0.612305 0.000000
0.343842 0.612305 0.000000
0.378082 0.612305 0.000000
0.413361 0.612305 0.000000
0.449585 0.612305 0.000000
0.486816 0.612305 0.000000
0.524933 0.612305 0.000000
0.563995 0.612305 0.000000
0.603943 0.612305 0.000000
0.644714 0.612305 0.000000
0.686340 0.612305 0.000000
0.728821 0.612305 0.000000
0.772095 0.612305 0.000000
0.816162 0.612305 0.000000
0.860992 0.612305 0.000000
0.906586 0.612305 0.000000
0.952942 0.612305 0.000000
1.000000 0.612305 0.000000
0.000000 0.639618 0.000000
0.006409 0.639618 0.000000
0.017761 0.639618 0.000000
0.032257 0.639618 0.000000
0.049225 0.639618 0.000000
0.068329 0.639618 0.000000
0.089355 0.639618 0.000000
0.112091 0.639618 0.000000
0.136414 0.639618 0.000000
0.162231 0.639618 0.000000
0.189423 0.639618 0.000000
0.217926 0.639618 0.000000
0.247650 0.639618 0.000000
0.278595 0.639618 0.000000
0.310669 0.639618 0.000000
0.343842 0.639618 0.000000
0.378082 0.639618 0.000000
0.413361 0.639618 0.000000
0.449585 0.639618 0.000000
0.486816 0.639618 0.000000
0.524933 0.639618 0.000000
0.563995 0.639618 0.000000
0.603943 0.639618 0.000000
0.644714 0.639618 0.000000
0.686340 0.639618 0.000000
0.728821 0.639618 0.000000
0.772095 0.639618 0.000000
0.816162 0.639618 0.000000
0.860992 0.639618 0.000000
0.906586 0.639618 0.000000
0.952942 0.639618 0.000000
1.000000 0.639618 0.000000
0.000000 0.666382 0.000000
0.006409 0.666382 0.000000
0.017761 0.666382 0.000000
0.032257 0.666382 0.000000
0.049225 0.666382 0.000000
0.068329 0.666382 0.000000
0.089355 0.666382 0.000000
0.112091 0.666382 0.000000
0.136414 0.666382 0.000000
0.162231 0.666382 0.000000
0.189423 0.666382 0.000000
0.217926 0.666382 0.000000
0.247650 0.666382 0.000000
0.278595 0.666382 0.000000
0.310669 0.666382 0.000000
0.343842 0.666382 0.000000
0.378082 0.666382 0.000000
0.413361 0.666382 0.000000
0.449585 0.666382 0.000000
0.486816 0.666382 0.000000
0.524933 0.666382 0.000000
0.563995 0.666382 0.000000
0.603943 0.666382 0.000000
0.644714 0.666382 0.000000
0.686340 0.666382 0.000000
0.728821 0.666382 0.000000
0.772095 0.666382 0.000000
0.816162 0.666382 0.000000
0.860992 0.666382 0.000000
0.906586 0.666382 0.000000
0.952942 0.666382 0.000000
1.000000 0.666382 0.000000
0.000000 0.692596 0.000000
0.006409 0.692596 0.000000
0.017761 0.692596 0.000000
0.032257 0.692596 0.000000
0.049225 0.692596 0.000000
0.068329 0.692596 0.000000
0.089355 0.692596 0.000000
0.112091 0.692596 0.000000
0.136414 0.692596 0.000000
0.162231 0.692596 0.000000
0.189423 0.692596 0.000000
0.217926 0.692596 0.000000
0.247650 0.692596 0.000000
0.278595 0.692596 0.000000
0.310669 0.692596 0.000000
0.343842 0.692596 0.000000
0.378082 0.692596 0.000000
0.413361 0.692596 0.000000
0.449585 0.692596 0.000000
0.486816 0.692596 0.000000
0.524933 0.692596 0.000000
0.563995 0.692596 0.000000
0.603943 0.692596 0.000000
0.644714 0.692596 0.000000
0.686340 0.692596 0.000000
0.728821 0.692596 0.000000
0.772095 0.692596 0.000000
0.816162 0.692596 0.000000
0.860992 0.692596 0.000000
0.906586 0.692596 0.000000
0.952942 0.692596 0.000000
1.000000 0.692596 0.000000
0.000000 0.718384 0.000000
0.006409 0.718384 0.000000
0.017761 0.718384 0.000000
0.032257 0.718384 0.000000
0.049225 0.718384 0.000000
0.068329 0.718384 0.000000
0.089355 0.718384 0.000000
0.112091 0.718384 0.000000
0.136414 0.718384 0.000000
0.162231 0.718384 0.000000
0.189423 0.718384 0.000000
0.217926 0.718384 0.000000
0.247650 0.718384 0.000000
0.278595 0.718384 0.000000
0.310669 0.718384 0.000000
0.343842 0.718384 0.000000
0.378082 0.718384 0.000000
0.413361 0.718384 0.000000
0.449585 0.718384 0.000000
0.486816 0.718384 0.000000
0.524933 0.718384 0.000000
0.563995 0.718384 0.000000
0.603943 0.718384 0.000000
0.644714 0.718384 0.000000
0.686340 0.718384 0.000000
0.728821 0.718384 0.000000
0.772095 0.718384 0.000000
0.816162 0.718384 0.000000
0.860992 0.718384 0.000000
0.906586 0.718384 0.000000
0.952942 0.718384 0.000000
1.000000 0.718384 0.000000
0.000000 0.743713 0.000000
0.006409 0.743713 0.000000
0.017761 0.743713 0.000000
0.032257 0.743713 0.000000
0.049225 0.743713 0.000000
0.068329 0.743713 0.000000
0.089355 0.743713 0.000000
0.112091 0.743713 0.000000
0.136414 0.743713 0.000000
0.162231 0.743713 0.000000
0.189423 0.743713 0.000000
0.217926 0.743713 0.000000
0.247650 0.743713 0.000000
0.278595 0.743713 0.000000
0.310669 0.743713 0.000000
0.343842 0.743713 0.000000
0.378082 0.743713 0.000000
0.413361 0.743713 0.000000
0.449585 0.743713 0.000000
0.486816 0.743713 0.000000
0.524933 0.743713 0.000000
0.563995 0.743713 0.000000
0.603943 0.743713 0.000000
0.644714 0.743713 0.000000
0.686340 0.743713 0.000000
0.728821 0.743713 0.000000
0.772095 0.743713 0.000000
0.816162 0.743713 0.000000
0.860992 0.743713 0.000000
0.906586 0.743713 0.000000
0.952942 0.743713 0.000000
1.000000 0.743713 0.000000
0.000000 0.768646 0.000000
0.006409 0.768646 0.000000
0.017761 0.768646 0.000000
0.032257 0.768646 0.000000
0.049225 0.768646 0.000000
0.068329 0.768646 0.000000
0.089355 0.768646 0.000000
0.112091 0.768646 0.000000
0.136414 0.768646 0.000000
0.162231 0.768646 0.000000
0.189423 0.768646 0.000000
0.217926 0.768646 0.000000
0.247650 0.768646 0.000000
0.278595 0.768646 0.000000
0.310669 0.768646 0.000000
0.343842 0.768646 0.000000
0.378082 0.768646 0.000000
0.413361 0.768646 0.000000
0.449585 0.768646 0.000000
0.486816 0.768646 0.000000
0.524933 0.768646 0.000000
0.563995 0.768646 0.000000
0.603943 0.768646 0.000000
0.644714 0.768646 0.000000
0.686340 0.768646 0.000000
0.728821 0.768646 0.000000
0.772095 0.768646 0.000000
0.816162 0.768646 0.000000
0.860992 0.768646 0.000000
0.906586 0.768646 0.000000
0.952942 0.768646 0.000000
1.000000 0.768646 0.000000
0.000000 0.793182 0.000000
0.006409 0.793182 0.000000
0.017761 0.793182 0.000000
0.032257 0.793182 0.000000
0.049225 0.793182 0.000000
0.068329 0.793182 0.000000
0.089355 0.793182 0.000000
0.112091 0.793182 0.000000
0.136414 0.793182 0.000000
0.162231 0.793182 0.000000
0.189423 0.793182 0.000000
0.217926 0.793182 0.000000
0.247650 0.793182 0.000000
0.278595 0.793182 0.000000
0.310669 0.793182 0.000000
0.343842 0.793182 0.000000
0.378082 0.793182 0.000000
0.413361 0.793182 0.000000
0.449585 0.793182 0.000000
0.486816 0.793182 0.000000
0.524933 0.793182 0.000000
0.563995 0.793182 0.000000
0.603943 0.793182 0.000000
0.644714 0.793182 0.000000
0.686340 0.793182 0.000000
0.728821 0.793182 0.000000
0.772095 0.793182 0.000000
0.816162 0.793182 0.000000
0.860992 0.793182 0.000000
0.906586 0.793182 0.000000
0.952942 0.793182 0.000000
1.000000 0.793182 0.000000
0.000000 0.817352 0.000000
0.006409 0.817352 0.000000
0.017761 0.817352 0.000000
0.032257 0.817352 0.000000
0.049225 0.817352 0.000000
0.068329 0.817352 0.000000
0.089355 0.817352 0.000000
0.112091 0.817352 0.000000
0.136414 0.817352 0.000000
0.162231 0.817352 0.000000
0.189423 0.817352 0.000000
0.217926 0.817352 0.000000
0.247650 0.817352 0.000000
0.278595 0.817352 0.000000
0.310669 0.817352 0.000000
0.343842 0.817352 0.000000
0.378082 0.817352 0.000000
0.413361 0.817352 0.000000
0.449585 0.817352 0.000000
0.486816 0.817352 0.000000
0.524933 0.817352 0.000000
0.563995 0.817352 0.000000
0.603943 0.817352 0.000000
0.644714 0.817352 0.000000
0.686340 0.817352 0.000000
0.728821 0.817352 0.000000
0.772095 0.817352 0.000000
0.816162 0.817352 0.000000
0.860992 0.817352 0.000000
0.906586 0.817352 0.000000
0.952942 0.817352 0.000000
1.000000 0.817352 0.000000
0.000000 0.841217 0.000000
0.006409 0.841217 0.000000
0.017761 0.841217 0.000000
0.032257 0.841217 0.000000
0.049225 0.841217 0.000000
0.068329 0.841217 0.000000
0.089355 0.841217 0.000000
0.112091 0.841217 0.000000
0.136414 0.841217 0.000000
0.162231 0.841217 0.000000
0.189423 0.841217 0.000000
0.217926 0.841217 0.000000
0.247650 0.841217 0.000000
0.278595 0.841217 0.000000
0.310669 0.841217 0.000000
0.343842 0.841217 0.000000
0.378082 0.841217 0.000000
0.413361 0.841217 0.000000
0.449585 0.841217 0.000000
0.486816 0.841217 0.000000
0.524933 0.841217 0.000000
0.563995 0.841217 0.000000
0.603943 0.841217 0.000000
0.644714 0.841217 0.000000
0.686340 0.841217 0.000000
0.728821 0.841217 0.000000
0.772095 0.841217 0.000000
0.816162 0.841217 0.000000
0.860992 0.841217 0.000000
0.906586 0.841217 0.000000
0.952942 0.841217 0.000000
1.000000 0.841217 0.000000
0.000000 0.864746 0.000000
0.006409 0.864746 0.000000
0.017761 0.864746 0.000000
0.032257 0.864746 0.000000
0.049225 0.864746 0.000000
0.068329 0.864746 0.000000
0.089355 0.864746 0.000000
0.112091 0.864746 0.000000
0.136414 0.864746 0.000000
0.162231 0.864746 0.000000
0.189423 0.864746 0.000000
0.217926 0.864746 0.000000
0.247650 0.864746 0.000000
0.278595 0.864746 0.000000
0.310669 0.864746 0.000000
0.343842 0.864746 0.000000
0.378082 0.864746 0.000000
0.413361 0.864746 0.000000
0.449585 0.864746 0.000000
0.486816 0.864746 0.000000
0.524933 0.864746 0.000000
0.563995 0.864746 0.000000
0.603943 0.864746 0.000000
0.644714 0.864746 0.000000
0.686340 0.864746 0.000000
0.728821 0.864746 0.000000
0.772095 0.864746 0.000000
0.816162 0.864746 0.000000
0.860992 0.864746 0.000000
0.906586 0.864746 0.000000
0.952942 0.864746 0.000000
1.000000 0.864746 0.000000
0.000000 0.887939 0.000000
0.006409 0.887939 0.000000
0.017761 0.887939 0.000000
0.032257 0.887939 0.000000
0.049225 0.887939 0.000000
0.068329 0.887939 0.000000
0.089355 0.887939 0.000000
0.112091 0.887939 0.000000
0.136414 0.887939 0.000000
0.162231 0.887939 0.000000
0.189423 0.887939 0.000000
0.217926 0.887939 0.000000
0.247650 0.887939 0.000000
0.278595 0.887939 0.000000
0.310669 0.887939 0.000000
0.343842 0.887939 0.000000
0.378082 0.887939 0.000000
0.413361 0.887939 0.000000
0.449585 0.887939 0.000000
0.486816 0.887939 0.000000
0.524933 0.887939 0.000000
0.563995 0.887939 0.000000
0.603943 0.887939 0.000000
0.644714 0.887939 0.000000
0.686340 0.887939 0.000000
0.728821 0.887939 0.000000
0.772095 0.887939 0.000000
0.816162 0.887939 0.000000
0.860992 0.887939 0.000000
0.906586 0.887939 0.000000
0.952942 0.887939 0.000000
1.000000 0.887939 0.000000
0.000000 0.910889 0.000000
0.006409 0.910889 0.000000
0.017761 0.910889 0.000000
0.032257 0.910889 0.000000
0.049225 0.910889 0.000000
0.068329 0.910889 0.000000
0.089355 0.910889 0.000000
0.112091 0.910889 0.000000
0.136414 0.910889 0.000000
0.162231 0.910889 0.000000
0.189423 0.910889 0.000000
0.217926 0.910889 0.000000
0.247650 0.910889 0.000000
0.278595 0.910889 0.000000
0.310669 0.910889 0.000000
0.343842 0.910889 0.000000
0.378082 0.910889 0.000000
0.413361 0.910889 0.000000
